;FLAVOR:Marlin
;TIME:2678
;Filament used: 2.93813m
;Layer height: 0.28
;MINX:78.508
;MINY:84.038
;MINZ:0.28
;MAXX:151.492
;MAXY:157.022
;MAXZ:8.12
;Generated with Cura_SteamEngine 5.0.0
M82 ;absolute extrusion mode
; Ender 3 Custom Start G-code
M140 S60.0 ; Set Heat Bed temperature
M190 S60.0 ; Wait for Heat Bed temperature
M104 S160; preheat extruder to 160
G28 ; Home all axes
G29 ; Auto bed-level (BL-Touch)
M104 S220.0 ; Set Extruder temperature
M109 S220.0 ; Wait for Extruder temperature
G1 X0.1 Y0.1 Z20 F5000.0 ; Move bottom left corner 20mm off bed for user to address any oozing before print
;M300 S1000 P500 ; chirp once to signal extruder now at temp and print has started
G1 Z2.0 F3000 ; Lower Z axis down to bed
G1 X0.1 Y20 Z0.3 F5000.0 ; Move to start position
G92 E0 ; Reset Extruder
G1 X0.1 Y200.0 Z0.3 F1500.0 E15 ; Draw the first line
G1 X0.4 Y200.0 Z0.3 F5000.0 ; Move to side a little
G1 X0.4 Y20 Z0.3 F1500.0 E30 ; Draw the second line
G92 E0 ; Reset Extruder
G1 Z2.0 F3000 ; Move Z Axis up little to prevent scratching of Heat Bed
G1 X5 Y20 Z0.3 F5000.0 ; Move over to prevent blob squish
G92 E0
G92 E0
G1 F2700 E-1
;LAYER_COUNT:29
;LAYER:0
M107
G0 F6000 X89.637 Y94.291 Z0.28
G0 X82.294 Y104.339
;TYPE:SKIRT
G1 F2700 E0
G1 F1200 X82.645 Y103.648 E0.03609
G1 X83.109 Y102.788 E0.08159
G1 X83.538 Y102.038 E0.12182
G1 X83.983 Y101.301 E0.16191
G1 X84.526 Y100.452 E0.20884
G1 X84.966 Y99.8 E0.24547
G1 X85.504 Y99.04 E0.28882
G1 X86.008 Y98.366 E0.32801
G1 X86.629 Y97.576 E0.3748
G1 X87.143 Y96.954 E0.41238
G1 X87.765 Y96.24 E0.45647
G1 X88.358 Y95.59 E0.49744
G1 X88.947 Y94.977 E0.53702
G1 X89.637 Y94.291 E0.58233
G1 X90.258 Y93.705 E0.62209
G1 X90.914 Y93.114 E0.6632
G1 X91.621 Y92.508 E0.70656
G1 X92.32 Y91.939 E0.74853
G1 X92.99 Y91.42 E0.78799
G1 X93.72 Y90.883 E0.83019
G1 X94.471 Y90.358 E0.87286
G1 X95.232 Y89.853 E0.91539
G1 X95.926 Y89.417 E0.95355
G1 X96.768 Y88.916 E0.99917
G1 X97.492 Y88.51 E1.03782
G1 X98.353 Y88.053 E1.08321
G1 X99.064 Y87.699 E1.1202
G1 X99.968 Y87.277 E1.16665
G1 X100.725 Y86.944 E1.20516
G1 X101.632 Y86.572 E1.25081
G1 X102.288 Y86.323 E1.28348
G1 X103.346 Y85.947 E1.33576
G1 X104.101 Y85.702 E1.37273
G1 X104.958 Y85.445 E1.41439
G1 X105.791 Y85.217 E1.4546
G1 X106.71 Y84.99 E1.49868
G1 X107.61 Y84.792 E1.54159
G1 X108.397 Y84.639 E1.57892
G1 X109.396 Y84.468 E1.62612
G1 X110.21 Y84.352 E1.6644
G1 X111.124 Y84.243 E1.70726
G1 X111.966 Y84.163 E1.74665
G1 X112.918 Y84.096 E1.79109
G1 X113.797 Y84.056 E1.83206
G1 X114.675 Y84.038 E1.87295
G1 X115.325 Y84.038 E1.90322
G1 X116.203 Y84.056 E1.94411
G1 X117.359 Y84.113 E1.998
G1 X118.311 Y84.187 E2.04246
G1 X119.128 Y84.271 E2.08071
G1 X120.045 Y84.386 E2.12374
G1 X120.9 Y84.516 E2.16401
G1 X121.861 Y84.687 E2.20946
G1 X122.641 Y84.845 E2.24652
G1 X123.579 Y85.058 E2.29131
G1 X124.457 Y85.283 E2.33351
G1 X125.299 Y85.52 E2.37425
G1 X126.154 Y85.782 E2.41588
G1 X126.923 Y86.04 E2.45365
G1 X127.941 Y86.408 E2.50406
G1 X128.627 Y86.675 E2.53834
G1 X129.533 Y87.055 E2.58408
G1 X130.264 Y87.383 E2.62139
G1 X131.191 Y87.824 E2.66919
G1 X131.882 Y88.175 E2.70528
G1 X132.738 Y88.636 E2.75055
G1 X133.469 Y89.054 E2.78976
G1 X134.313 Y89.565 E2.83571
G1 X134.979 Y89.991 E2.87252
G1 X135.747 Y90.507 E2.9156
G1 X136.515 Y91.052 E2.95945
G1 X137.209 Y91.572 E2.99983
G1 X137.891 Y92.108 E3.04022
G1 X138.59 Y92.686 E3.08246
G1 X139.29 Y93.294 E3.12563
G1 X139.939 Y93.887 E3.16657
G1 X140.553 Y94.477 E3.20622
G1 X141.24 Y95.168 E3.25159
G1 X141.824 Y95.786 E3.29118
G1 X142.417 Y96.444 E3.33243
G1 X143.026 Y97.156 E3.37606
G1 X143.548 Y97.796 E3.41451
G1 X144.156 Y98.581 E3.46075
G1 X144.653 Y99.258 E3.49985
G1 X145.166 Y99.992 E3.54155
G1 X145.63 Y100.69 E3.58058
G1 X146.173 Y101.554 E3.6281
G1 X146.592 Y102.262 E3.6664
G1 X147.02 Y103.022 E3.70702
G1 X147.477 Y103.883 E3.75241
G1 X147.822 Y104.576 E3.78846
G1 X148.275 Y105.541 E3.83809
G1 X148.558 Y106.191 E3.87111
G1 X148.976 Y107.207 E3.92226
G1 X149.24 Y107.902 E3.95688
G1 X149.547 Y108.77 E3.99975
G1 X149.834 Y109.648 E4.04276
G1 X150.089 Y110.504 E4.08435
G1 X150.317 Y111.341 E4.12475
G1 X150.556 Y112.312 E4.17131
G1 X150.714 Y113.027 E4.20541
G1 X150.894 Y113.941 E4.24878
G1 X151.057 Y114.905 E4.29431
G1 X151.182 Y115.772 E4.3351
G1 X151.282 Y116.61 E4.3744
G1 X151.371 Y117.537 E4.41776
G1 X151.433 Y118.439 E4.45986
G1 X151.473 Y119.33 E4.50139
G1 X151.492 Y120.196 E4.54172
G1 X151.488 Y121.167 E4.58694
G1 X151.465 Y121.963 E4.62402
G1 X151.417 Y122.888 E4.66715
G1 X151.344 Y123.831 E4.71119
G1 X151.256 Y124.693 E4.75154
G1 X151.145 Y125.557 E4.7921
G1 X151.009 Y126.455 E4.83439
G1 X150.848 Y127.367 E4.87751
G1 X150.673 Y128.235 E4.91874
G1 X150.487 Y129.046 E4.95749
G1 X150.251 Y129.97 E5.0019
G1 X150.012 Y130.825 E5.04323
G1 X149.749 Y131.68 E5.08489
G1 X149.46 Y132.543 E5.12727
G1 X149.156 Y133.382 E5.16882
G1 X148.85 Y134.169 E5.20814
G1 X148.475 Y135.063 E5.25328
G1 X148.144 Y135.801 E5.29094
G1 X147.704 Y136.723 E5.33851
G1 X147.342 Y137.436 E5.37575
G1 X146.925 Y138.209 E5.41664
G1 X146.432 Y139.072 E5.46292
G1 X146.025 Y139.745 E5.49955
G1 X145.492 Y140.581 E5.54571
G1 X145.025 Y141.273 E5.58459
G1 X144.509 Y142.001 E5.62614
G1 X143.938 Y142.765 E5.67055
G1 X143.423 Y143.42 E5.70935
G1 X142.844 Y144.12 E5.75165
G1 X142.235 Y144.82 E5.79485
G1 X141.642 Y145.47 E5.83582
G1 X141.053 Y146.083 E5.87541
G1 X140.363 Y146.769 E5.92071
G1 X139.742 Y147.355 E5.96047
G1 X139.086 Y147.946 E6.00158
G1 X138.379 Y148.552 E6.04494
G1 X137.688 Y149.114 E6.08642
G1 X137.015 Y149.636 E6.12608
G1 X136.234 Y150.21 E6.17121
G1 X135.547 Y150.689 E6.21021
G1 X134.815 Y151.176 E6.25115
G1 X134.034 Y151.667 E6.2941
G1 X133.232 Y152.144 E6.33755
G1 X132.508 Y152.55 E6.37621
G1 X131.647 Y153.007 E6.42159
G1 X130.936 Y153.361 E6.45858
G1 X130.032 Y153.783 E6.50503
G1 X129.275 Y154.116 E6.54354
G1 X128.383 Y154.482 E6.58844
G1 X127.618 Y154.773 E6.62655
G1 X126.75 Y155.081 E6.66944
G1 X125.886 Y155.363 E6.71176
G1 X125.031 Y155.618 E6.7533
G1 X124.197 Y155.845 E6.79355
G1 X123.215 Y156.088 E6.84065
G1 X122.502 Y156.244 E6.87464
G1 X121.5 Y156.44 E6.92218
G1 X120.71 Y156.575 E6.9595
G1 X119.769 Y156.711 E7.00377
G1 X118.877 Y156.817 E7.0456
G1 X118.035 Y156.897 E7.08498
G1 X117.082 Y156.964 E7.12947
G1 X116.203 Y157.004 E7.17044
G1 X115.325 Y157.022 E7.21133
G1 X114.403 Y157.019 E7.25427
G1 X113.535 Y156.994 E7.2947
G1 X112.641 Y156.947 E7.33639
G1 X111.689 Y156.873 E7.38085
G1 X110.879 Y156.79 E7.41876
G1 X109.947 Y156.672 E7.46251
G1 X109.016 Y156.53 E7.50636
G1 X108.252 Y156.394 E7.54249
G1 X107.24 Y156.19 E7.59056
G1 X106.494 Y156.019 E7.6262
G1 X105.56 Y155.781 E7.67108
G1 X104.705 Y155.542 E7.71242
G1 X103.85 Y155.279 E7.75408
G1 X102.987 Y154.99 E7.79645
G1 X102.148 Y154.686 E7.83801
G1 X101.361 Y154.38 E7.87732
G1 X100.467 Y154.005 E7.92247
G1 X99.736 Y153.677 E7.95978
G1 X98.809 Y153.236 E8.00758
G1 X98.118 Y152.885 E8.04366
G1 X97.262 Y152.424 E8.08894
G1 X96.529 Y152.005 E8.12825
G1 X95.734 Y151.524 E8.17152
G1 X94.961 Y151.03 E8.21423
G1 X94.26 Y150.557 E8.25361
G1 X93.518 Y150.032 E8.29594
G1 X92.765 Y149.468 E8.33974
G1 X92.11 Y148.953 E8.37854
G1 X91.408 Y148.373 E8.42094
G1 X90.709 Y147.765 E8.46408
G1 X90.06 Y147.172 E8.50502
G1 X89.447 Y146.583 E8.5446
G1 X88.759 Y145.891 E8.59004
G1 X88.175 Y145.272 E8.62967
G1 X87.585 Y144.618 E8.67068
G1 X86.976 Y143.906 E8.71431
G1 X86.416 Y143.218 E8.75561
G1 X85.894 Y142.545 E8.79527
G1 X85.32 Y141.764 E8.84041
G1 X84.844 Y141.082 E8.87913
G1 X84.356 Y140.347 E8.92021
G1 X83.818 Y139.492 E8.96725
G1 X83.434 Y138.842 E9.00241
G1 X82.954 Y137.989 E9.04798
G1 X82.529 Y137.188 E9.0902
G1 X82.175 Y136.476 E9.12723
G1 X81.747 Y135.562 E9.17422
G1 X81.414 Y134.805 E9.21273
G1 X81.048 Y133.913 E9.25763
G1 X80.757 Y133.148 E9.29574
G1 X80.449 Y132.28 E9.33863
G1 X80.167 Y131.416 E9.38095
G1 X79.912 Y130.561 E9.42249
G1 X79.685 Y129.727 E9.46274
G1 X79.442 Y128.746 E9.5098
G1 X79.279 Y128.004 E9.54518
G1 X79.101 Y127.095 E9.58831
G1 X78.949 Y126.192 E9.63094
G1 X78.82 Y125.302 E9.67282
G1 X78.713 Y124.41 E9.71465
G1 X78.633 Y123.565 E9.75418
G1 X78.566 Y122.612 E9.79866
G1 X78.526 Y121.734 E9.83959
G1 X78.508 Y120.856 E9.88048
G1 X78.511 Y119.933 E9.92346
G1 X78.536 Y119.058 E9.96422
G1 X78.584 Y118.163 E10.00595
G1 X78.654 Y117.255 E10.04836
G1 X78.746 Y116.355 E10.09048
G1 X78.853 Y115.513 E10.13001
G1 X78.988 Y114.624 E10.17188
G1 X79.157 Y113.671 E10.21695
G1 X79.329 Y112.822 E10.25728
G1 X79.513 Y112.014 E10.29587
G1 X79.749 Y111.09 E10.34027
G1 X79.988 Y110.235 E10.38161
G1 X80.251 Y109.38 E10.42327
G1 X80.539 Y108.519 E10.46554
G1 X80.847 Y107.667 E10.50773
G1 X81.131 Y106.941 E10.54403
G1 X81.542 Y105.956 E10.59373
G1 X81.848 Y105.274 E10.62853
G1 X82.294 Y104.339 E10.67677
G1 F2700 E9.67677
G0 F6000 X79.381 Y118.221
G1 F2700 E10.67677
G1 F1200 X79.45 Y117.334 E10.7182
G1 X79.54 Y116.453 E10.75943
G1 X79.645 Y115.629 E10.79811
G1 X79.776 Y114.761 E10.83899
G1 X79.941 Y113.828 E10.88311
G1 X80.11 Y112.995 E10.92268
G1 X80.288 Y112.21 E10.96017
G1 X80.52 Y111.303 E11.00376
G1 X80.754 Y110.467 E11.04418
G1 X81.01 Y109.631 E11.08489
G1 X81.292 Y108.788 E11.12629
G1 X81.594 Y107.954 E11.16759
G1 X81.869 Y107.247 E11.20291
G1 X82.274 Y106.28 E11.25173
G1 X82.571 Y105.616 E11.2856
G1 X83.009 Y104.698 E11.33296
G1 X83.351 Y104.025 E11.36811
G1 X83.805 Y103.182 E11.4127
G1 X84.224 Y102.449 E11.45201
G1 X84.659 Y101.729 E11.49118
G1 X85.19 Y100.898 E11.5371
G1 X85.621 Y100.26 E11.57295
G1 X86.147 Y99.517 E11.61534
G1 X86.638 Y98.858 E11.65361
G1 X87.246 Y98.084 E11.69944
G1 X87.749 Y97.477 E11.73615
G1 X88.357 Y96.777 E11.77932
G1 X88.937 Y96.142 E11.81937
G1 X89.513 Y95.543 E11.85806
G1 X90.189 Y94.87 E11.90248
G1 X90.795 Y94.297 E11.94132
G1 X91.436 Y93.72 E11.98147
G1 X92.128 Y93.127 E12.02391
G1 X92.812 Y92.57 E12.06498
G1 X93.467 Y92.062 E12.10358
G1 X94.18 Y91.537 E12.14481
G1 X94.915 Y91.023 E12.18657
G1 X95.661 Y90.528 E12.22826
G1 X96.337 Y90.103 E12.26544
G1 X97.163 Y89.612 E12.31019
G1 X97.869 Y89.215 E12.3479
G1 X98.712 Y88.768 E12.39233
G1 X99.405 Y88.423 E12.42838
G1 X100.293 Y88.008 E12.47402
G1 X101.031 Y87.683 E12.51157
G1 X101.92 Y87.319 E12.5563
G1 X102.559 Y87.076 E12.58814
G1 X103.596 Y86.707 E12.63939
G1 X104.333 Y86.467 E12.67548
G1 X105.172 Y86.216 E12.71626
G1 X105.987 Y85.993 E12.7556
G1 X106.885 Y85.771 E12.79868
G1 X107.765 Y85.577 E12.84064
G1 X108.535 Y85.427 E12.87717
G1 X109.513 Y85.26 E12.92336
G1 X110.308 Y85.146 E12.96076
G1 X111.203 Y85.039 E13.00273
G1 X112.025 Y84.961 E13.04118
G1 X112.957 Y84.895 E13.08469
G1 X113.817 Y84.856 E13.12477
G1 X114.675 Y84.838 E13.16473
G1 X115.325 Y84.838 E13.195
G1 X116.426 Y84.865 E13.24628
G1 X117.3 Y84.911 E13.28704
G1 X118.232 Y84.983 E13.33056
G1 X119.03 Y85.065 E13.36792
G1 X119.928 Y85.178 E13.41006
G1 X120.763 Y85.304 E13.44938
G1 X121.704 Y85.472 E13.49389
G1 X122.467 Y85.626 E13.53014
G1 X123.383 Y85.834 E13.57388
G1 X124.243 Y86.054 E13.61521
G1 X125.067 Y86.285 E13.65506
G1 X125.903 Y86.542 E13.69579
G1 X126.653 Y86.793 E13.73261
G1 X127.655 Y87.155 E13.78222
G1 X128.321 Y87.414 E13.8155
G1 X129.208 Y87.786 E13.86028
G1 X129.923 Y88.106 E13.89676
G1 X130.832 Y88.539 E13.94364
G1 X131.505 Y88.881 E13.97879
G1 X132.344 Y89.333 E14.02317
G1 X133.057 Y89.74 E14.0614
G1 X133.885 Y90.24 E14.10644
G1 X134.535 Y90.656 E14.14237
G1 X135.286 Y91.161 E14.18451
G1 X136.038 Y91.694 E14.22743
G1 X136.718 Y92.203 E14.26699
G1 X137.384 Y92.726 E14.30642
G1 X138.068 Y93.292 E14.34776
G1 X138.752 Y93.886 E14.38994
G1 X139.387 Y94.466 E14.42999
G1 X139.987 Y95.043 E14.46875
G1 X140.66 Y95.72 E14.5132
G1 X141.231 Y96.323 E14.55187
G1 X141.811 Y96.967 E14.59222
G1 X142.408 Y97.664 E14.63496
G1 X142.917 Y98.288 E14.67245
G1 X143.513 Y99.058 E14.71779
G1 X143.999 Y99.719 E14.756
G1 X144.502 Y100.437 E14.79682
G1 X144.954 Y101.118 E14.83488
G1 X145.486 Y101.964 E14.88141
G1 X145.897 Y102.657 E14.91893
G1 X146.315 Y103.399 E14.95858
G1 X146.762 Y104.242 E15.00301
G1 X147.099 Y104.918 E15.03819
G1 X147.543 Y105.864 E15.08685
G1 X147.819 Y106.498 E15.11904
G1 X148.229 Y107.495 E15.16924
G1 X148.487 Y108.171 E15.20293
G1 X148.788 Y109.022 E15.24497
G1 X149.068 Y109.88 E15.28699
G1 X149.318 Y110.716 E15.32762
G1 X149.541 Y111.535 E15.36715
G1 X149.776 Y112.487 E15.41281
G1 X149.929 Y113.185 E15.44608
G1 X150.105 Y114.078 E15.48846
G1 X150.266 Y115.022 E15.53305
G1 X150.388 Y115.869 E15.5729
G1 X150.486 Y116.689 E15.61135
G1 X150.573 Y117.596 E15.65378
G1 X150.634 Y118.478 E15.69495
G1 X150.674 Y119.35 E15.7356
G1 X150.692 Y120.196 E15.775
G1 X150.689 Y121.146 E15.81923
G1 X150.666 Y121.924 E15.85548
G1 X150.619 Y122.829 E15.89767
G1 X150.548 Y123.753 E15.94083
G1 X150.462 Y124.594 E15.98019
G1 X150.354 Y125.44 E16.0199
G1 X150.221 Y126.319 E16.0613
G1 X150.063 Y127.211 E16.10348
G1 X149.892 Y128.061 E16.14385
G1 X149.712 Y128.85 E16.18154
G1 X149.48 Y129.757 E16.22513
G1 X149.246 Y130.593 E16.26555
G1 X148.99 Y131.429 E16.30627
G1 X148.707 Y132.273 E16.34772
G1 X148.41 Y133.095 E16.38841
G1 X148.111 Y133.862 E16.42675
G1 X147.744 Y134.738 E16.47097
G1 X147.42 Y135.459 E16.50778
G1 X146.99 Y136.364 E16.55444
G1 X146.636 Y137.059 E16.59075
G1 X146.229 Y137.815 E16.63073
G1 X145.746 Y138.661 E16.67609
G1 X145.349 Y139.317 E16.7118
G1 X144.827 Y140.135 E16.75698
G1 X144.37 Y140.813 E16.79506
G1 X143.866 Y141.525 E16.83568
G1 X143.308 Y142.273 E16.87913
G1 X142.804 Y142.913 E16.91706
G1 X142.238 Y143.598 E16.95844
G1 X141.643 Y144.283 E17.00069
G1 X141.063 Y144.918 E17.04073
G1 X140.487 Y145.517 E17.07943
G1 X139.811 Y146.19 E17.12384
G1 X139.205 Y146.763 E17.16268
G1 X138.564 Y147.34 E17.20284
G1 X137.872 Y147.933 E17.24527
G1 X137.196 Y148.484 E17.28588
G1 X136.538 Y148.994 E17.32465
G1 X135.775 Y149.555 E17.36875
G1 X135.102 Y150.024 E17.40694
G1 X134.386 Y150.5 E17.44698
G1 X133.623 Y150.981 E17.48898
G1 X132.837 Y151.448 E17.53155
G1 X132.131 Y151.845 E17.56926
G1 X131.288 Y152.292 E17.6137
G1 X130.595 Y152.637 E17.64974
G1 X129.707 Y153.052 E17.69538
G1 X128.968 Y153.377 E17.73298
G1 X128.095 Y153.735 E17.77691
G1 X127.348 Y154.02 E17.81414
G1 X126.5 Y154.321 E17.85604
G1 X125.654 Y154.597 E17.89748
G1 X124.818 Y154.847 E17.93811
G1 X124.002 Y155.069 E17.97749
G1 X123.041 Y155.307 E18.02359
G1 X122.346 Y155.459 E18.05671
G1 X121.363 Y155.652 E18.10336
G1 X120.592 Y155.783 E18.13977
G1 X119.672 Y155.917 E18.18307
G1 X118.798 Y156.021 E18.22405
G1 X117.976 Y156.099 E18.2625
G1 X117.043 Y156.165 E18.30605
G1 X116.183 Y156.204 E18.34614
G1 X115.325 Y156.222 E18.3861
G1 X114.423 Y156.219 E18.4281
G1 X113.574 Y156.195 E18.46765
G1 X112.7 Y156.149 E18.5084
G1 X111.768 Y156.077 E18.55193
G1 X110.976 Y155.996 E18.589
G1 X110.065 Y155.881 E18.63176
G1 X109.153 Y155.742 E18.67471
G1 X108.408 Y155.61 E18.70994
G1 X107.415 Y155.41 E18.75711
G1 X106.689 Y155.243 E18.7918
G1 X105.773 Y155.01 E18.83581
G1 X104.937 Y154.776 E18.87623
G1 X104.101 Y154.52 E18.91695
G1 X103.257 Y154.237 E18.9584
G1 X102.435 Y153.94 E18.99909
G1 X101.668 Y153.641 E19.03743
G1 X100.792 Y153.274 E19.08165
G1 X100.077 Y152.954 E19.11813
G1 X99.168 Y152.521 E19.16501
G1 X98.495 Y152.179 E19.20016
G1 X97.656 Y151.727 E19.24454
G1 X96.941 Y151.319 E19.28287
G1 X96.162 Y150.848 E19.32526
G1 X95.406 Y150.365 E19.36703
G1 X94.719 Y149.902 E19.40561
G1 X93.995 Y149.39 E19.4469
G1 X93.257 Y148.838 E19.48981
G1 X92.617 Y148.334 E19.52775
G1 X91.931 Y147.767 E19.56919
G1 X91.247 Y147.173 E19.61137
G1 X90.612 Y146.593 E19.65142
G1 X90.013 Y146.017 E19.69011
G1 X89.339 Y145.339 E19.73463
G1 X88.767 Y144.735 E19.77336
G1 X88.191 Y144.095 E19.81346
G1 X87.594 Y143.399 E19.85615
G1 X87.046 Y142.726 E19.89657
G1 X86.536 Y142.068 E19.93533
G1 X85.975 Y141.305 E19.97943
G1 X85.509 Y140.636 E20.01739
G1 X85.031 Y139.919 E20.05752
G1 X84.505 Y139.082 E20.10355
G1 X84.13 Y138.447 E20.13789
G1 X83.659 Y137.611 E20.18257
G1 X83.244 Y136.829 E20.22379
G1 X82.898 Y136.134 E20.25995
G1 X82.478 Y135.237 E20.30606
G1 X82.153 Y134.498 E20.34366
G1 X81.795 Y133.625 E20.38759
G1 X81.51 Y132.878 E20.42482
G1 X81.209 Y132.03 E20.46672
G1 X80.933 Y131.184 E20.50816
