;FLAVOR:Marlin
;TIME:8016
;Filament used: 7.21604m
;Layer height: 0.28
;MINX:75.53
;MINY:43.938
;MINZ:0.28
;MAXX:154.47
;MAXY:172.662
;MAXZ:13.44
;Generated with Cura_SteamEngine 5.0.0
M82 ;absolute extrusion mode
; Ender 3 Custom Start G-code
M140 S70 ; Set Heat Bed temperature
M190 S70 ; Wait for Heat Bed temperature
M104 S160; preheat extruder to 160
G28 ; Home all axes
G29 ; Auto bed-level (BL-Touch)
M104 S215 ; Set Extruder temperature
M109 S215 ; Wait for Extruder temperature
G1 X0.1 Y0.1 Z20 F5000.0 ; Move bottom left corner 20mm off bed for user to address any oozing before print
;M300 S1000 P500 ; chirp once to signal extruder now at temp and print has started
G1 Z2.0 F3000 ; Lower Z axis down to bed
G1 X0.1 Y20 Z0.3 F5000.0 ; Move to start position
G92 E0 ; Reset Extruder
G1 X0.1 Y200.0 Z0.3 F1500.0 E15 ; Draw the first line
G1 X0.4 Y200.0 Z0.3 F5000.0 ; Move to side a little
G1 X0.4 Y20 Z0.3 F1500.0 E30 ; Draw the second line
G92 E0 ; Reset Extruder
G1 Z2.0 F3000 ; Move Z Axis up little to prevent scratching of Heat Bed
G1 X5 Y20 Z0.3 F5000.0 ; Move over to prevent blob squish
G92 E0
G92 E0
G1 F1500 E-6.5
;LAYER_COUNT:48
;LAYER:0
M107
G0 F6000 X78.483 Y78.566 Z0.28
G0 X75.534 Y85.907
;TYPE:SKIRT
G1 F1500 E0
G1 F900 X75.562 Y85.251 E0.03057
G1 X75.582 Y85.014 E0.04165
G1 X75.667 Y84.347 E0.07296
G1 X75.72 Y84.039 E0.08751
G1 X75.897 Y83.255 E0.12494
G1 X75.982 Y82.952 E0.13959
G1 X76.186 Y82.327 E0.1702
G1 X76.269 Y82.105 E0.18124
G1 X76.5 Y81.552 E0.20915
G1 X76.63 Y81.272 E0.22352
G1 X77.014 Y80.548 E0.26168
G1 X77.177 Y80.276 E0.27645
G1 X77.607 Y79.633 E0.31247
G1 X77.795 Y79.38 E0.32714
G1 X78.273 Y78.798 E0.36221
G1 X78.483 Y78.566 E0.37678
G1 X79.03 Y78.018 E0.41284
G1 X79.263 Y77.807 E0.42747
G1 X79.843 Y77.331 E0.46241
G1 X80.097 Y77.142 E0.47715
G1 X80.766 Y76.696 E0.51459
G1 X81.035 Y76.536 E0.52917
G1 X81.695 Y76.185 E0.56398
G1 X81.977 Y76.052 E0.57849
G1 X82.668 Y75.766 E0.61332
G1 X82.966 Y75.659 E0.62806
G1 X83.601 Y75.461 E0.65903
G1 X83.827 Y75.401 E0.66992
G1 X84.494 Y75.255 E0.70171
G1 X84.805 Y75.201 E0.71641
G1 X85.566 Y75.107 E0.75212
G1 X85.878 Y75.084 E0.76668
G1 X86.45 Y75.063 E0.79334
G1 X112.614 Y75.059 E2.01164
G1 X112.624 Y54.7 E2.95964
G1 X112.682 Y53.755 E3.00373
G1 X112.72 Y53.445 E3.01827
G1 X112.856 Y52.665 E3.05514
G1 X112.926 Y52.357 E3.06985
G1 X113.115 Y51.672 E3.10294
G1 X113.212 Y51.374 E3.11753
G1 X113.496 Y50.632 E3.15452
G1 X113.623 Y50.345 E3.16914
G1 X113.958 Y49.677 E3.20393
G1 X114.111 Y49.405 E3.21847
G1 X114.547 Y48.716 E3.25643
G1 X114.73 Y48.458 E3.27116
G1 X115.105 Y47.971 E3.29978
G1 X115.257 Y47.789 E3.31082
G1 X115.741 Y47.261 E3.34418
G1 X115.964 Y47.039 E3.35883
G1 X116.515 Y46.54 E3.39344
G1 X116.756 Y46.342 E3.40797
G1 X117.398 Y45.868 E3.44513
G1 X117.662 Y45.693 E3.45987
G1 X118.167 Y45.385 E3.48742
G1 X118.371 Y45.271 E3.4983
G1 X119.02 Y44.947 E3.53208
G1 X119.307 Y44.82 E3.54669
G1 X120.026 Y44.543 E3.58257
G1 X120.324 Y44.445 E3.59718
G1 X121.038 Y44.248 E3.63166
G1 X121.347 Y44.178 E3.64642
G1 X122.121 Y44.043 E3.683
G1 X122.431 Y44.005 E3.69755
G1 X123.083 Y43.953 E3.728
G1 X123.618 Y43.938 E3.75292
G1 X143.628 Y43.942 E4.68467
G1 X144.375 Y43.978 E4.7195
G1 X144.686 Y44.008 E4.73405
G1 X145.481 Y44.126 E4.77147
G1 X145.793 Y44.189 E4.78629
G1 X146.49 Y44.364 E4.81975
G1 X146.79 Y44.454 E4.83434
G1 X147.57 Y44.734 E4.87293
G1 X147.858 Y44.855 E4.88747
G1 X148.418 Y45.117 E4.91626
G1 X148.627 Y45.225 E4.92722
G1 X149.207 Y45.556 E4.95831
G1 X149.475 Y45.725 E4.97306
G1 X150.117 Y46.177 E5.00962
G1 X150.364 Y46.37 E5.02422
G1 X150.937 Y46.865 E5.05948
G1 X151.163 Y47.08 E5.074
G1 X151.608 Y47.539 E5.10377
G1 X151.765 Y47.715 E5.11475
G1 X152.217 Y48.271 E5.14812
G1 X152.404 Y48.524 E5.16277
G1 X152.79 Y49.098 E5.19498
G1 X152.912 Y49.298 E5.20589
G1 X153.23 Y49.872 E5.23644
G1 X153.371 Y50.154 E5.25112
G1 X153.609 Y50.677 E5.27788
G1 X153.699 Y50.896 E5.28891
G1 X153.96 Y51.636 E5.32544
G1 X154.049 Y51.935 E5.33997
G1 X154.195 Y52.503 E5.36728
G1 X154.245 Y52.733 E5.37824
G1 X154.366 Y53.447 E5.41196
G1 X154.404 Y53.759 E5.42659
G1 X154.455 Y54.405 E5.45677
G1 X154.47 Y54.938 E5.4816
G1 X154.466 Y161.817 E10.45833
G1 X154.438 Y162.473 E10.4889
G1 X154.418 Y162.71 E10.49998
G1 X154.333 Y163.377 E10.53129
G1 X154.28 Y163.685 E10.54584
G1 X154.106 Y164.459 E10.58278
G1 X154.022 Y164.76 E10.59733
G1 X153.816 Y165.391 E10.62824
G1 X153.732 Y165.616 E10.63942
G1 X153.5 Y166.173 E10.66752
G1 X153.37 Y166.453 E10.6819
G1 X152.979 Y167.188 E10.72066
G1 X152.816 Y167.459 E10.73539
G1 X152.393 Y168.091 E10.7708
G1 X152.205 Y168.344 E10.78548
G1 X151.727 Y168.926 E10.82055
G1 X151.517 Y169.158 E10.83512
G1 X150.97 Y169.706 E10.87117
G1 X150.737 Y169.917 E10.88581
G1 X150.157 Y170.393 E10.92075
G1 X149.903 Y170.582 E10.93549
G1 X149.234 Y171.028 E10.97293
G1 X148.965 Y171.188 E10.9875
G1 X148.346 Y171.519 E11.02019
G1 X148.064 Y171.654 E11.03474
G1 X147.288 Y171.976 E11.07387
G1 X146.99 Y172.081 E11.08858
G1 X146.319 Y172.284 E11.12122
G1 X146.016 Y172.361 E11.13578
G1 X145.233 Y172.518 E11.17296
G1 X144.921 Y172.564 E11.18765
G1 X144.156 Y172.638 E11.22344
G1 X143.469 Y172.662 E11.25545
G1 X86.374 Y172.658 E13.91403
G1 X85.719 Y172.63 E13.94456
G1 X85.482 Y172.61 E13.95563
G1 X84.815 Y172.525 E13.98694
G1 X84.507 Y172.472 E14.00149
G1 X83.746 Y172.302 E14.0378
G1 X83.443 Y172.218 E14.05244
G1 X82.715 Y171.977 E14.08815
G1 X82.42 Y171.863 E14.10288
G1 X81.724 Y171.553 E14.13835
G1 X81.446 Y171.413 E14.15285
G1 X80.789 Y171.042 E14.18798
G1 X80.523 Y170.874 E14.20263
G1 X79.87 Y170.413 E14.23985
G1 X79.623 Y170.219 E14.25448
G1 X79.076 Y169.747 E14.28812
G1 X78.847 Y169.53 E14.30281
G1 X78.314 Y168.973 E14.33871
G1 X78.108 Y168.735 E14.35336
G1 X77.629 Y168.121 E14.38963
G1 X77.448 Y167.864 E14.40426
G1 X77.031 Y167.205 E14.44058
G1 X76.877 Y166.932 E14.45517
G1 X76.547 Y166.277 E14.48932
G1 X76.419 Y165.99 E14.50395
G1 X76.123 Y165.219 E14.54241
G1 X76.027 Y164.923 E14.5569
G1 X75.84 Y164.24 E14.58987
G1 X75.77 Y163.931 E14.60463
G1 X75.635 Y163.157 E14.64121
G1 X75.597 Y162.847 E14.65576
G1 X75.545 Y162.195 E14.68621
G1 X75.53 Y161.662 E14.71104
G1 X75.534 Y85.907 E18.23851
G0 F6000 X75.934 Y85.907
G1 F900 X75.96 Y85.285 E18.2675
G1 X75.98 Y85.048 E18.27857
G1 X76.061 Y84.415 E18.30829
G1 X76.114 Y84.107 E18.32284
G1 X76.282 Y83.363 E18.35836
G1 X76.367 Y83.06 E18.37301
G1 X76.561 Y82.468 E18.40202
G1 X76.644 Y82.246 E18.41306
G1 X76.863 Y81.721 E18.43954
G1 X76.993 Y81.441 E18.45392
G1 X77.357 Y80.753 E18.49016
G1 X77.52 Y80.481 E18.50493
G1 X77.928 Y79.871 E18.5391
G1 X78.116 Y79.618 E18.55378
G1 X78.57 Y79.066 E18.58706
G1 X78.78 Y78.834 E18.60163
G1 X79.299 Y78.315 E18.6358
G1 X79.532 Y78.104 E18.65044
G1 X80.081 Y77.652 E18.68355
G1 X80.335 Y77.463 E18.6983
G1 X80.97 Y77.04 E18.73383
G1 X81.239 Y76.88 E18.7484
G1 X81.865 Y76.547 E18.78142
G1 X82.147 Y76.414 E18.79593
G1 X82.803 Y76.142 E18.829
G1 X83.101 Y76.035 E18.84375
G1 X83.703 Y75.848 E18.8731
G1 X83.929 Y75.788 E18.88399
G1 X84.562 Y75.649 E18.91416
G1 X84.873 Y75.595 E18.92886
G1 X85.595 Y75.506 E18.96274
G1 X85.907 Y75.483 E18.9773
G1 X86.45 Y75.463 E19.0026
G1 X113.014 Y75.459 E20.23954
G1 X113.024 Y54.7 E21.20616
G1 X113.079 Y53.804 E21.24796
G1 X113.117 Y53.494 E21.2625
G1 X113.246 Y52.754 E21.29748
G1 X113.316 Y52.446 E21.31219
G1 X113.495 Y51.796 E21.34358
G1 X113.592 Y51.498 E21.35818
G1 X113.862 Y50.794 E21.39329
G1 X113.989 Y50.507 E21.4079
G1 X114.306 Y49.873 E21.44091
G1 X114.459 Y49.601 E21.45544
G1 X114.873 Y48.948 E21.49144
G1 X115.056 Y48.69 E21.50617
G1 X115.412 Y48.227 E21.53336
G1 X115.564 Y48.045 E21.54441
G1 X116.023 Y47.545 E21.57601
G1 X116.246 Y47.323 E21.59066
G1 X116.769 Y46.849 E21.62353
G1 X117.01 Y46.651 E21.63805
G1 X117.619 Y46.201 E21.67331
G1 X117.883 Y46.026 E21.68806
G1 X118.362 Y45.734 E21.71418
G1 X118.566 Y45.62 E21.72506
G1 X119.182 Y45.313 E21.75711
G1 X119.469 Y45.186 E21.77173
G1 X120.151 Y44.923 E21.80576
G1 X120.449 Y44.825 E21.82037
G1 X121.126 Y44.638 E21.85307
G1 X121.435 Y44.568 E21.86783
G1 X122.17 Y44.44 E21.90257
G1 X122.48 Y44.402 E21.91711
G1 X123.098 Y44.352 E21.94598
G1 X123.617 Y44.338 E21.97016
G1 X143.627 Y44.342 E22.90191
G1 X144.337 Y44.376 E22.935
G1 X144.648 Y44.406 E22.94955
G1 X145.402 Y44.518 E22.98505
G1 X145.714 Y44.581 E22.99987
G1 X146.375 Y44.747 E23.0316
G1 X146.675 Y44.837 E23.04619
G1 X147.415 Y45.103 E23.0828
G1 X147.703 Y45.224 E23.09735
G1 X148.234 Y45.472 E23.12464
G1 X148.443 Y45.58 E23.13559
G1 X148.993 Y45.895 E23.16511
G1 X149.261 Y46.064 E23.17986
G1 X149.87 Y46.492 E23.21452
G1 X150.117 Y46.685 E23.22912
G1 X150.661 Y47.155 E23.26259
G1 X150.887 Y47.37 E23.27712
G1 X151.309 Y47.805 E23.30534
G1 X151.466 Y47.981 E23.31632
G1 X151.895 Y48.509 E23.348
G1 X152.082 Y48.762 E23.36265
G1 X152.448 Y49.306 E23.39318
G1 X152.57 Y49.506 E23.40409
G1 X152.872 Y50.051 E23.4331
G1 X153.013 Y50.333 E23.44778
G1 X153.239 Y50.829 E23.47316
G1 X153.329 Y51.048 E23.48419
G1 X153.576 Y51.75 E23.51884
G1 X153.665 Y52.049 E23.53336
G1 X153.804 Y52.588 E23.55928
G1 X153.854 Y52.818 E23.57024
G1 X153.969 Y53.495 E23.60222
G1 X154.007 Y53.807 E23.61685
G1 X154.056 Y54.42 E23.64549
G1 X154.07 Y54.938 E23.66962
G1 X154.066 Y161.817 E28.64635
G1 X154.04 Y162.439 E28.67534
G1 X154.02 Y162.676 E28.68642
G1 X153.939 Y163.309 E28.71613
G1 X153.886 Y163.617 E28.73068
G1 X153.721 Y164.351 E28.76571
G1 X153.637 Y164.652 E28.78027
G1 X153.442 Y165.251 E28.8096
G1 X153.358 Y165.476 E28.82078
G1 X153.137 Y166.004 E28.84743
G1 X153.007 Y166.284 E28.86181
G1 X152.636 Y166.982 E28.89862
G1 X152.473 Y167.253 E28.91334
G1 X152.072 Y167.853 E28.94695
G1 X151.884 Y168.106 E28.96162
G1 X151.43 Y168.658 E28.9949
G1 X151.22 Y168.89 E29.00947
G1 X150.701 Y169.409 E29.04365
G1 X150.468 Y169.62 E29.05829
G1 X149.919 Y170.072 E29.0914
G1 X149.665 Y170.261 E29.10614
G1 X149.03 Y170.684 E29.14167
G1 X148.761 Y170.844 E29.15625
G1 X148.173 Y171.159 E29.18731
G1 X147.891 Y171.294 E29.20187
G1 X147.155 Y171.598 E29.23895
G1 X146.857 Y171.703 E29.25366
G1 X146.221 Y171.896 E29.28461
G1 X145.918 Y171.973 E29.29916
G1 X145.174 Y172.122 E29.3345
G1 X144.862 Y172.168 E29.34918
G1 X144.137 Y172.239 E29.3831
G1 X143.469 Y172.262 E29.41422
G1 X86.374 Y172.258 E32.07281
G1 X85.753 Y172.232 E32.10175
G1 X85.516 Y172.212 E32.11282
G1 X84.883 Y172.131 E32.14254
G1 X84.575 Y172.078 E32.15709
G1 X83.853 Y171.916 E32.19155
G1 X83.55 Y171.832 E32.20619
G1 X82.86 Y171.604 E32.24003
G1 X82.565 Y171.49 E32.25475
G1 X81.904 Y171.196 E32.28844
G1 X81.626 Y171.056 E32.30293
G1 X81.002 Y170.704 E32.33629
G1 X80.736 Y170.536 E32.35094
G1 X80.117 Y170.099 E32.38622
G1 X79.87 Y169.905 E32.40085
G1 X79.351 Y169.456 E32.4328
G1 X79.122 Y169.239 E32.44749
G1 X78.617 Y168.711 E32.48151
G1 X78.411 Y168.473 E32.49617
G1 X77.956 Y167.891 E32.53057
G1 X77.775 Y167.634 E32.54521
G1 X77.38 Y167.009 E32.57964
G1 X77.226 Y166.736 E32.59423
G1 X76.913 Y166.114 E32.62665
G1 X76.785 Y165.827 E32.64129
G1 X76.504 Y165.096 E32.67775
G1 X76.408 Y164.8 E32.69224
G1 X76.23 Y164.152 E32.72353
G1 X76.16 Y163.843 E32.73829
G1 X76.032 Y163.108 E32.77303
G1 X75.994 Y162.798 E32.78757
G1 X75.944 Y162.18 E32.81644
G1 X75.93 Y161.662 E32.84057
G1 X75.934 Y85.907 E36.36804
G0 F6000 X76.334 Y85.907
G1 F900 X76.359 Y85.318 E36.39549
G1 X76.379 Y85.081 E36.40657
G1 X76.455 Y84.483 E36.43464
G1 X76.508 Y84.175 E36.44919
G1 X76.667 Y83.471 E36.48279
G1 X76.752 Y83.168 E36.49745
G1 X76.935 Y82.608 E36.52488
G1 X77.018 Y82.386 E36.53592
G1 X77.226 Y81.889 E36.56101
G1 X77.356 Y81.609 E36.57538
G1 X77.701 Y80.959 E36.60965
G1 X77.864 Y80.687 E36.62441
G1 X78.249 Y80.11 E36.65671
G1 X78.437 Y79.857 E36.67139
G1 X78.866 Y79.334 E36.70289
G1 X79.076 Y79.102 E36.71746
G1 X79.567 Y78.611 E36.74979
G1 X79.8 Y78.4 E36.76443
G1 X80.32 Y77.973 E36.79576
G1 X80.574 Y77.784 E36.8105
G1 X81.175 Y77.384 E36.84412
G1 X81.444 Y77.224 E36.85869
G1 X82.036 Y76.909 E36.88992
G1 X82.318 Y76.776 E36.90443
G1 X82.938 Y76.519 E36.93569
G1 X83.236 Y76.412 E36.95043
G1 X83.806 Y76.234 E36.97824
G1 X84.032 Y76.174 E36.98912
G1 X84.63 Y76.043 E37.01763
G1 X84.941 Y75.989 E37.03233
G1 X85.624 Y75.905 E37.06437
G1 X85.936 Y75.882 E37.07894
G1 X86.45 Y75.863 E37.10289
G1 X113.414 Y75.859 E38.35844
G1 X113.424 Y54.701 E39.34365
G1 X113.476 Y53.852 E39.38326
G1 X113.514 Y53.542 E39.3978
G1 X113.636 Y52.843 E39.43084
G1 X113.706 Y52.535 E39.44555
G1 X113.876 Y51.919 E39.4753
G1 X113.973 Y51.621 E39.4899
G1 X114.228 Y50.955 E39.5231
G1 X114.355 Y50.668 E39.53772
G1 X114.655 Y50.069 E39.56891
G1 X114.808 Y49.797 E39.58344
G1 X115.199 Y49.179 E39.6175
G1 X115.382 Y48.921 E39.63223
G1 X115.719 Y48.484 E39.65792
G1 X115.871 Y48.302 E39.66896
G1 X116.305 Y47.828 E39.69889
G1 X116.528 Y47.606 E39.71354
G1 X117.023 Y47.158 E39.74463
G1 X117.264 Y46.96 E39.75915
G1 X117.84 Y46.534 E39.79251
G1 X118.104 Y46.359 E39.80726
G1 X118.557 Y46.083 E39.83196
G1 X118.761 Y45.969 E39.84284
G1 X119.343 Y45.679 E39.87312
G1 X119.63 Y45.552 E39.88773
G1 X120.276 Y45.303 E39.91997
G1 X120.574 Y45.205 E39.93458
G1 X121.214 Y45.028 E39.9655
G1 X121.523 Y44.958 E39.98025
G1 X122.218 Y44.837 E40.0131
G1 X122.528 Y44.799 E40.02764
G1 X123.113 Y44.752 E40.05497
G1 X123.617 Y44.738 E40.07845
G1 X143.627 Y44.742 E41.0102
G1 X144.298 Y44.774 E41.04148
G1 X144.609 Y44.804 E41.05603
G1 X145.322 Y44.91 E41.08959
G1 X145.634 Y44.973 E41.10441
G1 X146.26 Y45.13 E41.13447
G1 X146.56 Y45.22 E41.14905
G1 X147.26 Y45.471 E41.18368
G1 X147.548 Y45.592 E41.19822
G1 X148.051 Y45.827 E41.22407
G1 X148.26 Y45.935 E41.23503
G1 X148.78 Y46.233 E41.26294
G1 X149.048 Y46.402 E41.27769
G1 X149.624 Y46.807 E41.31048
G1 X149.871 Y47 E41.32507
G1 X150.386 Y47.444 E41.35674
G1 X150.612 Y47.659 E41.37126
G1 X151.011 Y48.071 E41.39797
G1 X151.168 Y48.247 E41.40895
G1 X151.573 Y48.746 E41.43887
G1 X151.76 Y48.999 E41.45352
G1 X152.107 Y49.515 E41.48248
G1 X152.229 Y49.715 E41.49339
G1 X152.514 Y50.23 E41.52079
G1 X152.655 Y50.512 E41.53548
G1 X152.869 Y50.981 E41.55948
G1 X152.959 Y51.2 E41.57051
G1 X153.193 Y51.864 E41.60329
G1 X153.282 Y52.163 E41.61781
G1 X153.413 Y52.673 E41.64233
G1 X153.463 Y52.903 E41.65329
G1 X153.572 Y53.544 E41.68357
G1 X153.61 Y53.856 E41.6982
G1 X153.656 Y54.435 E41.72525
G1 X153.67 Y54.938 E41.74868
G1 X153.666 Y161.817 E46.72541
G1 X153.641 Y162.406 E46.75287
G1 X153.621 Y162.643 E46.76394
G1 X153.545 Y163.241 E46.79201
G1 X153.492 Y163.549 E46.80656
G1 X153.335 Y164.244 E46.83974
G1 X153.251 Y164.545 E46.85429
G1 X153.067 Y165.111 E46.882
G1 X152.983 Y165.336 E46.89319
G1 X152.774 Y165.836 E46.91842
G1 X152.644 Y166.116 E46.9328
G1 X152.294 Y166.776 E46.96758
G1 X152.131 Y167.047 E46.98231
G1 X151.751 Y167.614 E47.01409
G1 X151.563 Y167.867 E47.02877
G1 X151.134 Y168.39 E47.06027
G1 X150.924 Y168.622 E47.07484
G1 X150.433 Y169.113 E47.10717
G1 X150.2 Y169.324 E47.12181
G1 X149.68 Y169.751 E47.15314
G1 X149.426 Y169.94 E47.16788
G1 X148.825 Y170.34 E47.2015
G1 X148.556 Y170.5 E47.21607
G1 X148.001 Y170.798 E47.2454
G1 X147.719 Y170.933 E47.25996
G1 X147.022 Y171.221 E47.29508
G1 X146.724 Y171.326 E47.30979
G1 X146.122 Y171.508 E47.33908
G1 X145.819 Y171.585 E47.35363
G1 X145.116 Y171.726 E47.38702
G1 X144.804 Y171.772 E47.40171
G1 X144.118 Y171.839 E47.4338
G1 X143.47 Y171.862 E47.46399
G1 X86.375 Y171.858 E50.12258
G1 X85.786 Y171.833 E50.15003
G1 X85.549 Y171.813 E50.1611
G1 X84.951 Y171.737 E50.18917
G1 X84.643 Y171.684 E50.20372
G1 X83.96 Y171.531 E50.23631
G1 X83.657 Y171.447 E50.25096
G1 X83.004 Y171.23 E50.283
G1 X82.709 Y171.116 E50.29772
G1 X82.084 Y170.839 E50.32956
G1 X81.806 Y170.699 E50.34405
G1 X81.216 Y170.365 E50.37562
G1 X80.95 Y170.197 E50.39027
G1 X80.364 Y169.784 E50.42365
G1 X80.117 Y169.59 E50.43828
G1 X79.626 Y169.166 E50.46848
G1 X79.397 Y168.949 E50.48317
G1 X78.919 Y168.449 E50.51538
G1 X78.713 Y168.211 E50.53004
G1 X78.283 Y167.661 E50.56255
G1 X78.102 Y167.404 E50.57719
G1 X77.728 Y166.812 E50.60979
G1 X77.574 Y166.539 E50.62439
G1 X77.278 Y165.951 E50.65504
G1 X77.15 Y165.664 E50.66967
G1 X76.884 Y164.973 E50.70415
