;FLAVOR:Marlin
;TIME:6278
;Filament used: 6.07559m
;Layer height: 0.28
;MINX:72.33
;MINY:40.738
;MINZ:0.28
;MAXX:157.67
;MAXY:175.86
;MAXZ:13.44
;Generated with Cura_SteamEngine 5.0.0
M82 ;absolute extrusion mode
; Ender 3 Custom Start G-code
M140 S60.0 ; Set Heat Bed temperature
M190 S60.0 ; Wait for Heat Bed temperature
M104 S160; preheat extruder to 160
G28 ; Home all axes
G29 ; Auto bed-level (BL-Touch)
M104 S220.0 ; Set Extruder temperature
M109 S220.0 ; Wait for Extruder temperature
G1 X0.1 Y0.1 Z20 F5000.0 ; Move bottom left corner 20mm off bed for user to address any oozing before print
;M300 S1000 P500 ; chirp once to signal extruder now at temp and print has started
G1 Z2.0 F3000 ; Lower Z axis down to bed
G1 X0.1 Y20 Z0.3 F5000.0 ; Move to start position
G92 E0 ; Reset Extruder
G1 X0.1 Y200.0 Z0.3 F1500.0 E15 ; Draw the first line
G1 X0.4 Y200.0 Z0.3 F5000.0 ; Move to side a little
G1 X0.4 Y20 Z0.3 F1500.0 E30 ; Draw the second line
G92 E0 ; Reset Extruder
G1 Z2.0 F3000 ; Move Z Axis up little to prevent scratching of Heat Bed
G1 X5 Y20 Z0.3 F5000.0 ; Move over to prevent blob squish
G92 E0
G92 E0
G1 F2700 E-1
;LAYER_COUNT:48
;LAYER:0
M107
G0 F6000 X76.743 Y75.786 Z0.28
G0 X72.335 Y86.454
;TYPE:SKIRT
G1 F2700 E0
G1 F1200 X72.345 Y85.749 E0.03283
G1 X72.386 Y84.948 E0.07018
G1 X72.406 Y84.719 E0.08088
G1 X72.517 Y83.845 E0.12191
G1 X72.57 Y83.531 E0.13673
G1 X72.838 Y82.349 E0.19317
G1 X72.93 Y82.026 E0.20881
G1 X73.259 Y81.047 E0.2569
G1 X73.363 Y80.78 E0.27024
G1 X73.801 Y79.8 E0.32023
G1 X73.952 Y79.502 E0.33578
G1 X74.411 Y78.684 E0.37946
G1 X74.749 Y78.171 E0.40806
G1 X75.014 Y77.792 E0.4296
G1 X75.779 Y76.819 E0.48723
G1 X76.093 Y76.463 E0.50933
G1 X76.743 Y75.786 E0.55304
G1 X77.59 Y75.056 E0.6051
G1 X78.049 Y74.699 E0.63218
G1 X78.813 Y74.155 E0.67585
G1 X79.614 Y73.682 E0.71917
G1 X80.066 Y73.442 E0.743
G1 X82.448 Y72.215 E0.86776
G1 X84.647 Y71.004 E0.98466
G1 X86.827 Y69.719 E1.10249
G1 X88.934 Y68.397 E1.21831
G1 X91.044 Y66.987 E1.33648
G1 X93.092 Y65.535 E1.45338
G1 X95.093 Y64.028 E1.57003
G1 X97.086 Y62.438 E1.68874
G1 X99.007 Y60.813 E1.8059
G1 X100.867 Y59.148 E1.92215
G1 X102.692 Y57.419 E2.03921
G1 X104.481 Y55.626 E2.15715
G1 X106.19 Y53.812 E2.2732
G1 X107.875 Y51.918 E2.39124
G1 X109.49 Y49.999 E2.50803
G1 X111.07 Y48.009 E2.62635
G1 X112.356 Y46.303 E2.72583
G1 X113.057 Y45.464 E2.77674
G1 X113.285 Y45.217 E2.79239
G1 X114.213 Y44.323 E2.85239
G1 X114.596 Y43.995 E2.87587
G1 X115.334 Y43.416 E2.91955
G1 X115.798 Y43.1 E2.94569
G1 X116.087 Y42.914 E2.96169
G1 X117.246 Y42.263 E3.02359
G1 X117.562 Y42.11 E3.03994
G1 X118.81 Y41.598 E3.10275
G1 X119.315 Y41.426 E3.12759
G1 X120.619 Y41.07 E3.19053
G1 X120.84 Y41.024 E3.20104
G1 X121.712 Y40.879 E3.24221
G1 X121.959 Y40.848 E3.2538
G1 X123.119 Y40.764 E3.30795
G1 X124.588 Y40.738 E3.37637
G1 X143.094 Y40.743 E4.23808
G1 X143.613 Y40.75 E4.26225
G1 X144.314 Y40.782 E4.29493
G1 X144.818 Y40.821 E4.31847
G1 X146.033 Y40.983 E4.37554
G1 X147.111 Y41.235 E4.42709
G1 X147.668 Y41.395 E4.45408
G1 X148.558 Y41.692 E4.49777
G1 X149.099 Y41.915 E4.52501
G1 X149.369 Y42.035 E4.53877
G1 X150.442 Y42.584 E4.5949
G1 X150.737 Y42.756 E4.6108
G1 X151.468 Y43.222 E4.65116
G1 X151.687 Y43.374 E4.66358
G1 X152.434 Y43.941 E4.70724
G1 X152.918 Y44.367 E4.73727
G1 X153.364 Y44.783 E4.76567
G1 X154.022 Y45.451 E4.80933
G1 X154.524 Y46.048 E4.84565
G1 X154.74 Y46.324 E4.86197
G1 X155.341 Y47.171 E4.91033
G1 X155.503 Y47.424 E4.92432
G1 X156.051 Y48.384 E4.97579
G1 X156.203 Y48.684 E4.99145
G1 X156.591 Y49.538 E5.03513
G1 X156.782 Y50.047 E5.06044
G1 X156.939 Y50.499 E5.08272
G1 X157.256 Y51.589 E5.13558
G1 X157.312 Y51.827 E5.14696
G1 X157.502 Y52.855 E5.19564
G1 X157.544 Y53.162 E5.21007
G1 X157.644 Y54.441 E5.26981
G1 X157.67 Y55.9 E5.33776
G1 X157.664 Y161.336 E10.2473
G1 X157.648 Y162.129 E10.28423
G1 X157.559 Y163.316 E10.33966
G1 X157.52 Y163.618 E10.35384
G1 X157.378 Y164.461 E10.39364
G1 X157.328 Y164.7 E10.40501
G1 X157.055 Y165.745 E10.45531
G1 X156.951 Y166.076 E10.47146
G1 X156.499 Y167.268 E10.53082
G1 X156.326 Y167.655 E10.55056
G1 X155.83 Y168.632 E10.60158
G1 X155.759 Y168.756 E10.60824
G1 X155.186 Y169.653 E10.6578
G1 X154.952 Y169.983 E10.67664
G1 X154.228 Y170.897 E10.73093
G1 X153.906 Y171.262 E10.75359
G1 X153.256 Y171.938 E10.79726
G1 X152.41 Y172.668 E10.84929
G1 X151.951 Y173.025 E10.87637
G1 X151.187 Y173.569 E10.92004
G1 X150.323 Y174.075 E10.96667
G1 X149.814 Y174.343 E10.99345
G1 X148.966 Y174.744 E11.03713
G1 X148.31 Y174.999 E11.0699
G1 X147.383 Y175.295 E11.11521
G1 X146.963 Y175.409 E11.13548
G1 X145.677 Y175.677 E11.19665
G1 X145.37 Y175.722 E11.2111
G1 X144.211 Y175.829 E11.26529
G1 X143.22 Y175.86 E11.31146
G1 X86.853 Y175.856 E13.93614
G1 X86.064 Y175.84 E13.97289
G1 X84.923 Y175.757 E14.02616
G1 X84.635 Y175.721 E14.03968
G1 X83.71 Y175.565 E14.08336
G1 X83.223 Y175.45 E14.10666
G1 X82.667 Y175.305 E14.13341
G1 X81.771 Y175.03 E14.17705
G1 X80.77 Y174.619 E14.22744
G1 X80.331 Y174.413 E14.25002
G1 X79.198 Y173.798 E14.31005
G1 X78.815 Y173.56 E14.33105
G1 X77.749 Y172.807 E14.39182
G1 X77.029 Y172.188 E14.43603
G1 X76.645 Y171.829 E14.46051
G1 X75.988 Y171.16 E14.50417
G1 X75.332 Y170.361 E14.55231
G1 X74.983 Y169.892 E14.57953
G1 X74.243 Y168.758 E14.64258
G1 X73.774 Y167.862 E14.68967
G1 X73.584 Y167.456 E14.71055
G1 X73.139 Y166.355 E14.76584
G1 X72.829 Y165.319 E14.8162
G1 X72.701 Y164.801 E14.84104
G1 X72.464 Y163.52 E14.9017
G1 X72.438 Y163.311 E14.91151
G1 X72.356 Y162.162 E14.96515
G1 X72.33 Y160.687 E15.03384
G1 X72.335 Y86.454 E18.49044
G0 F6000 X72.735 Y86.46
G1 F1200 X72.745 Y85.755 E18.52327
G1 X72.784 Y84.983 E18.55927
G1 X72.804 Y84.754 E18.56997
G1 X72.912 Y83.912 E18.6095
G1 X72.965 Y83.598 E18.62433
G1 X73.222 Y82.458 E18.67874
G1 X73.314 Y82.135 E18.69438
G1 X73.632 Y81.192 E18.74072
G1 X73.736 Y80.925 E18.75406
G1 X74.158 Y79.981 E18.80221
G1 X74.309 Y79.683 E18.81777
G1 X74.76 Y78.88 E18.86065
G1 X75.077 Y78.4 E18.88744
G1 X75.342 Y78.021 E18.90897
G1 X76.079 Y77.083 E18.96452
G1 X76.393 Y76.727 E18.98662
G1 X77.032 Y76.064 E19.0295
G1 X77.835 Y75.372 E19.07886
G1 X78.294 Y75.015 E19.10593
G1 X79.045 Y74.482 E19.14882
G1 X79.802 Y74.035 E19.18975
G1 X80.249 Y73.798 E19.21331
G1 X82.617 Y72.578 E19.33735
G1 X84.863 Y71.341 E19.45674
G1 X86.994 Y70.085 E19.57192
G1 X89.163 Y68.724 E19.69116
G1 X91.293 Y67.302 E19.81041
G1 X93.324 Y65.861 E19.92637
G1 X95.355 Y64.332 E20.04474
G1 X97.328 Y62.757 E20.1623
G1 X99.252 Y61.13 E20.27963
G1 X101.143 Y59.437 E20.39781
G1 X102.967 Y57.708 E20.51484
G1 X104.772 Y55.899 E20.63383
G1 X106.497 Y54.07 E20.7509
G1 X108.182 Y52.175 E20.86898
G1 X109.809 Y50.242 E20.98663
G1 X111.384 Y48.258 E21.10458
G1 X112.676 Y46.544 E21.20453
G1 X113.351 Y45.735 E21.25359
G1 X113.579 Y45.488 E21.26924
G1 X114.473 Y44.627 E21.32704
G1 X114.856 Y44.299 E21.35052
G1 X115.581 Y43.731 E21.3934
G1 X116.014 Y43.437 E21.41777
G1 X116.303 Y43.251 E21.43378
G1 X117.421 Y42.623 E21.49349
G1 X117.737 Y42.47 E21.50983
G1 X118.938 Y41.977 E21.57029
G1 X119.443 Y41.805 E21.59513
G1 X120.701 Y41.461 E21.65586
G1 X120.922 Y41.415 E21.66637
G1 X121.762 Y41.276 E21.70601
G1 X122.009 Y41.245 E21.7176
G1 X123.127 Y41.164 E21.7698
G1 X124.588 Y41.138 E21.83784
G1 X143.089 Y41.143 E22.69932
G1 X143.608 Y41.15 E22.72349
G1 X144.283 Y41.181 E22.75496
G1 X144.787 Y41.22 E22.7785
G1 X145.961 Y41.376 E22.83364
G1 X147.001 Y41.619 E22.88337
G1 X147.558 Y41.779 E22.91036
G1 X148.431 Y42.071 E22.95322
G1 X149.206 Y42.401 E22.99245
G1 X150.24 Y42.93 E23.04653
G1 X150.535 Y43.102 E23.06243
G1 X151.24 Y43.551 E23.10135
G1 X151.459 Y43.703 E23.11376
G1 X152.192 Y44.26 E23.15663
G1 X152.645 Y44.66 E23.18477
G1 X153.091 Y45.076 E23.21317
G1 X153.736 Y45.732 E23.25601
G1 X154.209 Y46.294 E23.29021
G1 X154.425 Y46.57 E23.30653
G1 X155.004 Y47.387 E23.35316
G1 X155.166 Y47.64 E23.36715
G1 X155.695 Y48.565 E23.41677
G1 X155.847 Y48.865 E23.43243
G1 X156.227 Y49.704 E23.47531
G1 X156.404 Y50.178 E23.49887
G1 X156.561 Y50.63 E23.52115
G1 X156.866 Y51.68 E23.57207
G1 X156.922 Y51.918 E23.58345
G1 X157.106 Y52.909 E23.63039
G1 X157.148 Y53.216 E23.64481
G1 X157.244 Y54.449 E23.7024
G1 X157.27 Y55.9 E23.76998
G1 X157.264 Y161.328 E28.67915
G1 X157.248 Y162.121 E28.71608
G1 X157.163 Y163.265 E28.7695
G1 X157.124 Y163.567 E28.78367
G1 X156.986 Y164.38 E28.82207
G1 X156.936 Y164.619 E28.83344
G1 X156.674 Y165.625 E28.88185
G1 X156.57 Y165.956 E28.898
G1 X156.134 Y167.105 E28.95523
G1 X155.961 Y167.492 E28.97497
G1 X155.483 Y168.433 E29.02411
G1 X155.412 Y168.557 E29.03077
G1 X154.86 Y169.421 E29.07851
G1 X154.626 Y169.751 E29.09735
G1 X153.928 Y170.632 E29.14968
G1 X153.606 Y170.997 E29.17235
G1 X152.967 Y171.661 E29.21526
G1 X152.165 Y172.352 E29.26455
G1 X151.706 Y172.709 E29.29163
G1 X150.955 Y173.242 E29.33451
G1 X150.136 Y173.721 E29.37869
G1 X149.627 Y173.989 E29.40548
G1 X148.795 Y174.382 E29.44832
G1 X148.171 Y174.624 E29.47949
G1 X147.279 Y174.909 E29.52309
G1 X146.859 Y175.023 E29.54336
G1 X145.619 Y175.281 E29.60233
G1 X145.312 Y175.326 E29.61678
G1 X144.195 Y175.43 E29.66902
G1 X143.22 Y175.46 E29.71444
G1 X86.861 Y175.456 E32.33875
G1 X86.072 Y175.44 E32.3755
G1 X84.972 Y175.36 E32.42685
G1 X84.684 Y175.324 E32.44037
G1 X83.777 Y175.17 E32.48321
G1 X83.324 Y175.063 E32.50488
G1 X82.768 Y174.918 E32.53163
G1 X81.888 Y174.647 E32.57451
G1 X80.94 Y174.257 E32.62224
G1 X80.501 Y174.051 E32.64482
G1 X79.409 Y173.458 E32.70268
G1 X79.026 Y173.22 E32.72368
G1 X77.999 Y172.494 E32.78225
G1 X77.302 Y171.896 E32.82501
G1 X76.918 Y171.537 E32.84949
G1 X76.273 Y170.88 E32.89236
G1 X75.653 Y170.122 E32.93796
G1 X75.304 Y169.653 E32.96518
G1 X74.591 Y168.56 E33.02594
G1 X74.136 Y167.693 E33.07154
G1 X73.946 Y167.287 E33.09241
G1 X73.518 Y166.225 E33.14573
G1 X73.218 Y165.223 E33.19443
G1 X73.09 Y164.705 E33.21928
G1 X72.861 Y163.471 E33.27772
G1 X72.835 Y163.262 E33.28752
G1 X72.756 Y162.154 E33.33925
G1 X72.73 Y160.687 E33.40757
G1 X72.735 Y86.46 E36.86389
G0 F6000 X73.135 Y86.465
G1 F1200 X73.145 Y85.76 E36.89672
G1 X73.183 Y85.018 E36.93132
G1 X73.203 Y84.789 E36.94202
G1 X73.306 Y83.978 E36.98009
G1 X73.359 Y83.664 E36.99491
G1 X73.607 Y82.568 E37.04724
G1 X73.699 Y82.245 E37.06288
G1 X74.005 Y81.337 E37.10749
G1 X74.109 Y81.07 E37.12084
G1 X74.514 Y80.162 E37.16713
G1 X74.665 Y79.864 E37.18269
G1 X75.109 Y79.077 E37.22476
G1 X75.405 Y78.629 E37.24977
G1 X75.67 Y78.25 E37.2713
G1 X76.379 Y77.348 E37.32472
G1 X76.693 Y76.992 E37.34683
G1 X77.32 Y76.342 E37.38888
G1 X78.081 Y75.688 E37.4356
G1 X78.54 Y75.331 E37.46268
G1 X79.277 Y74.808 E37.50476
G1 X79.991 Y74.388 E37.54333
G1 X80.432 Y74.153 E37.5666
G1 X82.842 Y72.912 E37.69282
G1 X85.027 Y71.708 E37.80899
G1 X87.231 Y70.409 E37.92812
G1 X89.393 Y69.053 E38.04695
G1 X91.484 Y67.656 E38.16405
G1 X93.567 Y66.178 E38.28298
G1 X95.582 Y64.661 E38.40042
G1 X97.589 Y63.059 E38.52
G1 X99.531 Y61.418 E38.63839
G1 X101.402 Y59.742 E38.75535
G1 X103.279 Y57.964 E38.87574
G1 X105.046 Y56.192 E38.99226
G1 X106.787 Y54.345 E39.11045
G1 X108.486 Y52.436 E39.22945
G1 X110.098 Y50.52 E39.34604
G1 X111.711 Y48.488 E39.46685
G1 X112.995 Y46.785 E39.56616
G1 X113.645 Y46.007 E39.61337
G1 X113.873 Y45.76 E39.62902
G1 X114.733 Y44.931 E39.68464
G1 X115.116 Y44.603 E39.70812
G1 X115.828 Y44.046 E39.75021
G1 X116.52 Y43.587 E39.78888
G1 X117.595 Y42.983 E39.8463
G1 X117.911 Y42.83 E39.86265
G1 X119.067 Y42.356 E39.92082
G1 X119.572 Y42.184 E39.94566
G1 X120.782 Y41.853 E40.00408
G1 X121.003 Y41.807 E40.01459
G1 X121.812 Y41.672 E40.05278
G1 X122.059 Y41.641 E40.06437
G1 X123.134 Y41.564 E40.11456
G1 X124.588 Y41.538 E40.18227
G1 X143.084 Y41.543 E41.04352
G1 X143.603 Y41.55 E41.06769
G1 X144.252 Y41.579 E41.09794
G1 X144.756 Y41.618 E41.12148
G1 X145.89 Y41.77 E41.17476
G1 X146.89 Y42.003 E41.22257
G1 X147.447 Y42.163 E41.24955
G1 X148.303 Y42.451 E41.29161
G1 X149.044 Y42.766 E41.3291
G1 X150.039 Y43.275 E41.38114
G1 X150.334 Y43.447 E41.39704
G1 X151.012 Y43.88 E41.4345
G1 X151.231 Y44.032 E41.44691
G1 X151.949 Y44.579 E41.48894
G1 X152.372 Y44.952 E41.51521
G1 X152.818 Y45.368 E41.5436
G1 X153.451 Y46.013 E41.58569
G1 X153.894 Y46.541 E41.61778
G1 X154.11 Y46.817 E41.6341
G1 X154.667 Y47.603 E41.67896
G1 X154.829 Y47.856 E41.69294
G1 X155.338 Y48.746 E41.74069
G1 X155.49 Y49.046 E41.75635
G1 X155.862 Y49.869 E41.7984
G1 X156.026 Y50.309 E41.82027
G1 X156.183 Y50.761 E41.84255
G1 X156.477 Y51.772 E41.89157
G1 X156.533 Y52.01 E41.90296
G1 X156.71 Y52.963 E41.94809
G1 X156.752 Y53.27 E41.96252
G1 X156.844 Y54.457 E42.01796
G1 X156.87 Y55.9 E42.08516
G1 X156.864 Y161.32 E46.99396
G1 X156.848 Y162.113 E47.03089
G1 X156.766 Y163.213 E47.08225
G1 X156.727 Y163.515 E47.09643
G1 X156.595 Y164.298 E47.13341
G1 X156.545 Y164.537 E47.14478
G1 X156.292 Y165.505 E47.19137
G1 X156.188 Y165.836 E47.20752
G1 X155.769 Y166.942 E47.26259
G1 X155.596 Y167.329 E47.28233
G1 X155.136 Y168.234 E47.3296
G1 X155.065 Y168.358 E47.33626
G1 X154.533 Y169.19 E47.38224
G1 X154.299 Y169.52 E47.40108
G1 X153.628 Y170.368 E47.45143
G1 X153.306 Y170.733 E47.4741
G1 X152.679 Y171.383 E47.51615
G1 X151.919 Y172.036 E47.56281
G1 X151.46 Y172.393 E47.58988
G1 X150.723 Y172.916 E47.63196
G1 X149.95 Y173.367 E47.67364
G1 X149.441 Y173.635 E47.70042
G1 X148.22 Y174.179 E47.76266
G1 X148.033 Y174.248 E47.77195
G1 X147.174 Y174.523 E47.81394
G1 X146.754 Y174.637 E47.83421
G1 X145.561 Y174.885 E47.89095
G1 X145.254 Y174.93 E47.9054
G1 X144.179 Y175.03 E47.95567
G1 X143.22 Y175.06 E48.00034
G1 X86.869 Y175.056 E50.62428
G1 X86.08 Y175.04 E50.66103
G1 X85.022 Y174.963 E50.71043
G1 X84.734 Y174.927 E50.72394
G1 X83.425 Y174.676 E50.786
G1 X82.869 Y174.531 E50.81276
G1 X82.006 Y174.265 E50.85481
G1 X81.11 Y173.895 E50.89995
G1 X80.671 Y173.689 E50.92253
G1 X79.62 Y173.119 E50.9782
G1 X79.237 Y172.881 E50.9992
G1 X78.249 Y172.182 E51.05555
G1 X77.575 Y171.604 E51.0969
G1 X77.191 Y171.245 E51.12138
G1 X76.559 Y170.6 E51.16342
G1 X75.974 Y169.883 E51.20651
G1 X75.625 Y169.414 E51.23373
G1 X74.939 Y168.363 E51.29218
G1 X74.499 Y167.523 E51.33633
G1 X74.309 Y167.117 E51.3572
G1 X73.896 Y166.096 E51.40849
G1 X73.606 Y165.127 E51.45559
G1 X73.478 Y164.609 E51.48043
G1 X73.258 Y163.421 E51.53669
G1 X73.232 Y163.212 E51.5465
G1 X73.156 Y162.146 E51.59626
G1 X73.13 Y160.687 E51.66421
G1 X73.135 Y86.465 E55.1203
G1 F2700 E54.1203
G0 F6000 X133.988 Y58.033
G1 F2700 E55.1203
G1 F1200 X134.03 Y57.984 E55.1233
G1 X135.844 Y57.951 E55.20778
G1 X135.778 Y58.032 E55.21265
G1 X133.988 Y58.033 E55.296
G1 F2700 E54.296
G0 F6000 X131.03 Y58.434
G1 F2700 E55.296
G1 F1200 X131.263 Y58.112 E55.31451
G1 X131.725 Y57.701 E55.3433
G1 X131.983 Y57.997 E55.36158
G1 X132.197 Y58.181 E55.37472
G1 X132.453 Y58.299 E55.38785
G1 X132.732 Y58.34 E55.40098
G1 X133.012 Y58.301 E55.41414
G1 X133.269 Y58.186 E55.42725
G1 X133.495 Y57.993 E55.44109
G1 X133.844 Y57.588 E55.46599
G1 X136.205 Y57.545 E55.57594
G1 X136.413 Y57.645 E55.58669
G1 X136.413 Y57.888 E55.59801
G1 X135.968 Y58.432 E55.63073
G1 X131.03 Y58.434 E55.86067
G0 F6000 X130.533 Y58.437
G1 F1200 X130.963 Y57.845 E55.89474
G1 X131.679 Y57.208 E55.93936
G1 X131.827 Y57.208 E55.94625
G1 X132.285 Y57.734 E55.97873
G1 X132.456 Y57.87 E55.9889
G1 X132.664 Y57.935 E55.99905
G1 X132.881 Y57.922 E56.00917
G1 X133.08 Y57.832 E56.01934
G1 X133.192 Y57.732 E56.02633
G1 X133.658 Y57.191 E56.05958
G1 X136.293 Y57.143 E56.1823
G1 X136.813 Y57.393 E56.20917
G1 X136.813 Y58.031 E56.23887
G1 X136.158 Y58.832 E56.28705
G1 X130.821 Y58.834 E56.53557
G1 X130.533 Y58.437 E56.5584
G0 F6000 X130.039 Y58.437
G1 F1200 X130.664 Y57.575 E56.60798
G1 X131.527 Y56.808 E56.66175
G1 X132.008 Y56.808 E56.68414
G1 X132.586 Y57.471 E56.7251
G1 X132.694 Y57.535 E56.73095
G1 X132.818 Y57.523 E56.73675
G1 X132.889 Y57.471 E56.74084
G1 X133.472 Y56.794 E56.78245
G1 X136.381 Y56.742 E56.91792
G1 X137.213 Y57.14 E56.96087
G1 X137.213 Y58.173 E57.00897
G1 X136.347 Y59.232 E57.07267
G1 X130.617 Y59.234 E57.33948
G1 X130.039 Y58.437 E57.38533
G1 F2700 E56.38533
G0 F6000 X138.394 Y104.02
G1 F2700 E57.38533
