;FLAVOR:Marlin
;TIME:13910
;Filament used: 15.3847m
;Layer height: 0.28
;MINX:12.561
;MINY:9.066
;MINZ:0.28
;MAXX:215.539
;MAXY:218.812
;MAXZ:3.08
;Generated with Cura_SteamEngine 5.0.0
M82 ;absolute extrusion mode
; Ender 3 Custom Start G-code
M140 S60.0 ; Set Heat Bed temperature
M190 S60.0 ; Wait for Heat Bed temperature
M104 S160; preheat extruder to 160
G28 ; Home all axes
G29 ; Auto bed-level (BL-Touch)
M104 S220.0 ; Set Extruder temperature
M109 S220.0 ; Wait for Extruder temperature
G1 X0.1 Y0.1 Z20 F5000.0 ; Move bottom left corner 20mm off bed for user to address any oozing before print
;M300 S1000 P500 ; chirp once to signal extruder now at temp and print has started
G1 Z2.0 F3000 ; Lower Z axis down to bed
G1 X0.1 Y20 Z0.3 F5000.0 ; Move to start position
G92 E0 ; Reset Extruder
G1 X0.1 Y200.0 Z0.3 F1500.0 E15 ; Draw the first line
G1 X0.4 Y200.0 Z0.3 F5000.0 ; Move to side a little
G1 X0.4 Y20 Z0.3 F1500.0 E30 ; Draw the second line
G92 E0 ; Reset Extruder
G1 Z2.0 F3000 ; Move Z Axis up little to prevent scratching of Heat Bed
G1 X5 Y20 Z0.3 F5000.0 ; Move over to prevent blob squish
G92 E0
G92 E0
G1 F2700 E-1
;LAYER_COUNT:11
;LAYER:0
M107
G0 F6000 X49.994 Y125.523 Z0.28
G0 X47.178 Y128.68
;TYPE:SKIRT
G1 F2700 E0
G1 F1200 X49.037 Y126.596 E0.13004
G1 X49.723 Y125.808 E0.17869
G1 X49.994 Y125.523 E0.197
G1 X135.866 Y39.651 E5.85182
G1 X136.339 Y39.19 E5.88257
G1 X137.196 Y38.439 E5.93563
G1 X139.253 Y36.603 E6.06402
G1 X141.239 Y34.728 E6.1912
G1 X143.149 Y32.817 E6.31701
G1 X145.036 Y30.822 E6.44488
G1 X146.819 Y28.824 E6.56957
G1 X147.546 Y27.987 E6.62119
G1 X147.846 Y27.67 E6.64152
G1 X164.86 Y10.658 E7.76185
G1 X165.34 Y10.191 E7.79303
G1 X165.772 Y9.826 E7.81937
G1 X166.251 Y9.526 E7.84569
G1 X166.767 Y9.297 E7.87197
G1 X167.311 Y9.142 E7.89831
G1 X167.872 Y9.066 E7.92467
G1 X168.437 Y9.07 E7.95098
G1 X168.996 Y9.153 E7.9773
G1 X169.538 Y9.314 E8.00363
G1 X170.052 Y9.55 E8.02996
G1 X170.527 Y9.856 E8.05627
G1 X171.03 Y10.304 E8.08764
G1 X171.556 Y10.858 E8.12321
G1 X214.052 Y56.946 E11.04231
G1 X214.519 Y57.467 E11.07489
G1 X214.865 Y57.914 E11.10121
G1 X215.145 Y58.405 E11.12753
G1 X215.354 Y58.93 E11.15384
G1 X215.486 Y59.48 E11.18018
G1 X215.539 Y60.043 E11.20651
G1 X215.512 Y60.608 E11.23285
G1 X215.406 Y61.163 E11.25916
G1 X215.212 Y61.722 E11.28671
G1 X214.48 Y63.419 E11.37277
G1 X213.446 Y65.964 E11.50068
G1 X212.5 Y68.498 E11.62663
G1 X211.61 Y71.106 E11.75495
G1 X210.813 Y73.676 E11.88024
G1 X210.092 Y76.255 E12.00493
G1 X209.423 Y78.942 E12.13387
G1 X209.119 Y80.368 E12.20176
G1 X209.089 Y80.473 E12.20685
G1 X208.79 Y81.802 E12.27028
G1 X208.627 Y82.343 E12.29659
G1 X208.39 Y82.856 E12.3229
G1 X208.082 Y83.331 E12.34926
G1 X207.805 Y83.661 E12.36932
G1 X207.505 Y83.977 E12.38961
G1 X74.267 Y217.215 E21.16356
G1 X73.779 Y217.689 E21.19524
G1 X73.347 Y218.054 E21.22158
G1 X72.867 Y218.353 E21.24791
G1 X72.35 Y218.582 E21.27424
G1 X71.806 Y218.736 E21.30056
G1 X71.246 Y218.812 E21.32688
G1 X70.681 Y218.808 E21.35319
G1 X70.122 Y218.724 E21.37951
G1 X69.58 Y218.563 E21.40584
G1 X69.067 Y218.326 E21.43215
G1 X68.591 Y218.02 E21.4585
G1 X68.328 Y217.803 E21.47438
G1 X67.719 Y217.26 E21.51237
G1 X14.265 Y167.969 E24.89811
G1 X13.803 Y167.53 E24.92779
G1 X13.421 Y167.112 E24.95416
G1 X13.103 Y166.645 E24.98046
G1 X12.853 Y166.138 E25.00679
G1 X12.678 Y165.601 E25.03309
G1 X12.579 Y165.044 E25.05943
G1 X12.561 Y164.479 E25.08575
G1 X12.622 Y163.917 E25.11207
G1 X12.762 Y163.369 E25.13841
G1 X12.978 Y162.847 E25.16472
G1 X13.265 Y162.36 E25.19104
G1 X13.686 Y161.846 E25.22197
G1 X14.129 Y161.389 E25.25161
G1 X38.023 Y137.495 E26.82507
G1 X38.672 Y136.872 E26.86696
G1 X39.411 Y136.231 E26.91251
G1 X41.428 Y134.429 E27.03846
G1 X43.414 Y132.553 E27.16567
G1 X45.341 Y130.623 E27.29266
G1 X47.178 Y128.68 E27.41717
G1 F2700 E26.41717
G0 F6000 X43.689 Y132.844
G1 F2700 E27.41717
G1 F1200 X45.614 Y130.916 E27.54404
G1 X47.483 Y128.939 E27.67072
G1 X49.335 Y126.863 E27.80026
G1 X50.015 Y126.082 E27.84848
G1 X50.276 Y125.805 E27.8662
G1 X136.145 Y39.938 E33.52076
G1 X136.775 Y39.333 E33.56143
G1 X137.479 Y38.723 E33.6048
G1 X139.529 Y36.893 E33.73276
G1 X141.514 Y35.019 E33.85987
G1 X143.44 Y33.092 E33.98674
G1 X145.309 Y31.117 E34.11335
G1 X147.161 Y29.041 E34.2429
G1 X147.838 Y28.26 E34.29102
G1 X148.128 Y27.953 E34.31069
G1 X165.139 Y10.945 E35.43079
G1 X165.619 Y10.478 E35.46198
G1 X166.03 Y10.133 E35.48696
G1 X166.488 Y9.854 E35.51194
G1 X166.982 Y9.646 E35.53689
G1 X167.501 Y9.513 E35.56184
G1 X168.035 Y9.459 E35.58683
G1 X168.571 Y9.485 E35.61182
G1 X169.096 Y9.59 E35.63675
G1 X169.601 Y9.773 E35.66176
G1 X170.073 Y10.028 E35.68674
G1 X170.501 Y10.35 E35.71168
G1 X170.74 Y10.58 E35.72713
G1 X171.262 Y11.13 E35.76244
G1 X213.754 Y57.213 E38.68124
G1 X214.221 Y57.734 E38.71382
G1 X214.548 Y58.159 E38.73879
G1 X214.808 Y58.628 E38.76376
G1 X214.996 Y59.13 E38.78872
G1 X215.108 Y59.655 E38.81372
G1 X215.14 Y60.19 E38.83867
G1 X215.092 Y60.724 E38.86364
G1 X214.965 Y61.245 E38.88861
G1 X214.845 Y61.564 E38.90448
G1 X214.11 Y63.267 E38.99085
G1 X213.065 Y65.841 E39.12021
G1 X212.118 Y68.376 E39.24621
G1 X211.239 Y70.953 E39.373
G1 X210.431 Y73.555 E39.49986
G1 X209.693 Y76.197 E39.6276
G1 X209.041 Y78.817 E39.75332
G1 X208.728 Y80.285 E39.82321
G1 X208.694 Y80.4 E39.82879
G1 X208.399 Y81.714 E39.8915
G1 X208.243 Y82.227 E39.91647
G1 X208.013 Y82.711 E39.94142
G1 X207.712 Y83.156 E39.96644
G1 X207.513 Y83.387 E39.98063
G1 X207.223 Y83.695 E40.00033
G1 X73.988 Y216.928 E48.77402
G1 X73.5 Y217.402 E48.8057
G1 X73.089 Y217.746 E48.83065
G1 X72.631 Y218.025 E48.85563
G1 X72.136 Y218.233 E48.88063
G1 X71.617 Y218.365 E48.90556
G1 X71.083 Y218.419 E48.93056
G1 X70.547 Y218.392 E48.95555
G1 X70.022 Y218.287 E48.98048
G1 X69.517 Y218.104 E49.00549
G1 X69.046 Y217.849 E49.03043
G1 X68.594 Y217.505 E49.05688
G1 X67.991 Y216.966 E49.09454
G1 X14.54 Y167.679 E52.48005
G1 X14.078 Y167.24 E52.50973
G1 X13.718 Y166.842 E52.53471
G1 X13.421 Y166.396 E52.55967
G1 X13.193 Y165.91 E52.58466
G1 X13.04 Y165.396 E52.60963
G1 X12.966 Y164.865 E52.6346
G1 X12.971 Y164.329 E52.65956
G1 X13.055 Y163.799 E52.68455
G1 X13.217 Y163.288 E52.70951
G1 X13.454 Y162.807 E52.73448
G1 X13.759 Y162.366 E52.75944
G1 X13.973 Y162.124 E52.77449
G1 X14.455 Y161.627 E52.80672
G1 X38.302 Y137.782 E54.37702
G1 X38.934 Y137.174 E54.41786
G1 X39.673 Y136.533 E54.46341
G1 X41.706 Y134.717 E54.59034
G1 X43.689 Y132.844 E54.71736
G1 F2700 E53.71736
G0 F6000 X38.58 Y138.068
G1 F2700 E54.71736
G1 F1200 X39.196 Y137.477 E54.75711
G1 X39.935 Y136.836 E54.80266
G1 X41.982 Y135.007 E54.93048
G1 X43.964 Y133.135 E55.05743
G1 X45.887 Y131.209 E55.18416
G1 X47.789 Y129.197 E55.31308
G1 X49.606 Y127.161 E55.44015
G1 X50.306 Y126.356 E55.48983
G1 X50.559 Y126.088 E55.50699
G1 X136.425 Y40.224 E61.16134
G1 X137.036 Y39.636 E61.20083
G1 X137.759 Y39.01 E61.24536
G1 X139.788 Y37.198 E61.37203
G1 X141.806 Y35.293 E61.50125
G1 X143.712 Y33.386 E61.6268
G1 X145.598 Y31.392 E61.7546
G1 X147.459 Y29.307 E61.88474
G1 X148.043 Y28.631 E61.92633
G1 X148.411 Y28.236 E61.95147
G1 X165.418 Y11.231 E63.07135
G1 X165.898 Y10.764 E63.10253
G1 X166.287 Y10.442 E63.12604
G1 X166.722 Y10.184 E63.14959
G1 X167.192 Y9.998 E63.17313
G1 X167.685 Y9.889 E63.19664
G1 X168.19 Y9.859 E63.2202
G1 X168.693 Y9.908 E63.24373
G1 X169.182 Y10.036 E63.26727
G1 X169.645 Y10.24 E63.29083
G1 X170.07 Y10.514 E63.31437
G1 X170.45 Y10.855 E63.33815
G1 X170.968 Y11.401 E63.37319
G1 X213.456 Y57.48 E66.29173
G1 X213.923 Y58.001 E66.32431
G1 X214.23 Y58.403 E66.34786
G1 X214.469 Y58.848 E66.37138
G1 X214.635 Y59.326 E66.39495
G1 X214.725 Y59.823 E66.41846
G1 X214.734 Y60.329 E66.44203
G1 X214.664 Y60.83 E66.46558
G1 X214.478 Y61.405 E66.49373
G1 X213.737 Y63.121 E66.58076
G1 X212.703 Y65.668 E66.70876
G1 X211.741 Y68.243 E66.83676
G1 X210.851 Y70.853 E66.96516
G1 X210.05 Y73.434 E67.091
G1 X209.308 Y76.09 E67.21941
G1 X208.643 Y78.762 E67.34762
G1 X208.336 Y80.201 E67.41614
G1 X208.309 Y80.292 E67.42056
G1 X208.009 Y81.627 E67.48427
G1 X207.86 Y82.11 E67.50781
G1 X207.636 Y82.563 E67.53134
G1 X207.222 Y83.114 E67.56343
G1 X206.94 Y83.412 E67.58253
G1 X73.71 Y216.641 E76.35592
G1 X73.222 Y217.115 E76.3876
G1 X72.832 Y217.438 E76.41118
G1 X72.397 Y217.695 E76.43471
G1 X71.927 Y217.88 E76.45823
G1 X71.433 Y217.989 E76.48178
G1 X70.928 Y218.019 E76.50534
G1 X70.425 Y217.969 E76.52888
G1 X69.936 Y217.841 E76.55241
G1 X69.474 Y217.637 E76.57593
G1 X68.86 Y217.207 E76.61084
G1 X68.262 Y216.672 E76.6482
G1 X14.816 Y167.389 E80.03341
G1 X14.354 Y166.95 E80.06309
G1 X14.016 Y166.574 E80.08663
G1 X13.742 Y166.149 E80.11018
G1 X13.537 Y165.686 E80.13376
G1 X13.409 Y165.198 E80.15725
G1 X13.359 Y164.694 E80.18083
G1 X13.388 Y164.19 E80.20434
G1 X13.497 Y163.696 E80.2279
G1 X13.683 Y163.226 E80.25143
G1 X13.94 Y162.79 E80.275
G1 X14.26 Y162.403 E80.29838
G1 X14.738 Y161.91 E80.33036
G1 X38.58 Y138.068 E81.90039
G1 F2700 E80.90039
;MESH:Divider.stl
G0 F6000 X40.257 Y139.977
G0 X41.294 Y141.014
G0 X17.66 Y164.607
G0 X70.974 Y214.029
G1 F2700 E81.90039
G0 F6000 X70.984 Y214.557
;TYPE:WALL-OUTER
G1 F1200 X204.616 Y80.925 E90.70029
G1 X197.677 Y73.986 E91.15723
G1 X197.63 Y73.828 E91.16491
G1 X197.687 Y73.713 E91.17089
G1 X211.272 Y60.127 E92.06551
G1 X168.125 Y13.333 E95.02933
G1 X150.736 Y30.723 E96.17446
G1 X157.674 Y37.661 E96.63134
G1 X157.722 Y37.82 E96.63907
G1 X157.665 Y37.935 E96.64505
G1 X146.332 Y49.266 E97.39128
G1 X146.172 Y49.303 E97.39893
G1 X146.068 Y49.248 E97.40441
G1 X139.14 Y42.319 E97.86066
G1 X52.89 Y128.568 E103.54034
G1 X59.83 Y135.508 E103.99735
G1 X59.877 Y135.668 E104.00511
G1 X59.82 Y135.781 E104.01101
G1 X48.489 Y147.109 E104.75707
G1 X48.325 Y147.149 E104.76493
G1 X48.222 Y147.094 E104.77037
G1 X41.294 Y140.165 E105.22662
G1 X16.833 Y164.625 E106.83739
G1 X30.521 Y177.245 E107.70432
G1 X70.984 Y214.557 E110.26723
G0 F6000 X70.973 Y214.003
;TYPE:WALL-INNER
G1 F1200 X204.05 Y80.925 E119.03061
G1 X197.404 Y74.28 E119.46822
G1 X197.267 Y74.068 E119.47998
G1 X197.23 Y73.817 E119.49179
G1 X197.302 Y73.568 E119.50386
G1 X197.404 Y73.43 E119.51185
G1 X210.718 Y60.116 E120.3886
G1 X168.113 Y13.911 E123.31515
G1 X151.302 Y30.723 E124.42221
G1 X157.976 Y37.398 E124.86174
G1 X158.101 Y37.63 E124.87401
G1 X158.113 Y37.904 E124.88678
G1 X158.005 Y38.152 E124.89938
G1 X157.948 Y38.218 E124.90344
G1 X146.605 Y49.559 E125.65033
G1 X146.378 Y49.683 E125.66237
G1 X146.116 Y49.699 E125.6746
G1 X145.853 Y49.589 E125.68787
G1 X145.785 Y49.531 E125.69203
G1 X139.14 Y42.885 E126.12965
G1 X53.456 Y128.568 E131.77205
G1 X60.103 Y135.214 E132.20974
G1 X60.242 Y135.431 E132.22174
G1 X60.277 Y135.685 E132.23368
G1 X60.201 Y135.935 E132.24584
G1 X60.103 Y136.064 E132.25339
G1 X48.761 Y147.403 E133.00018
G1 X48.526 Y147.53 E133.01262
G1 X48.273 Y147.546 E133.02442
G1 X48.035 Y147.455 E133.03628
G1 X47.939 Y147.377 E133.04204
G1 X41.294 Y140.731 E133.47966
G1 X17.411 Y164.613 E135.05237
G1 X30.792 Y176.951 E135.89988
G1 X70.973 Y214.003 E138.44493
G0 F6000 X70.961 Y213.503
;TYPE:SKIN
G1 F1200 X203.54 Y80.925 E147.17545
G1 X197.136 Y74.52 E147.5972
G1 X196.959 Y74.258 E147.61192
G1 X196.875 Y73.94 E147.62724
G1 X196.904 Y73.607 E147.6428
G1 X197.06 Y73.284 E147.6595
G1 X197.095 Y73.236 E147.66227
G1 X210.218 Y60.104 E148.52674
G1 X168.103 Y14.43 E151.41964
G1 X151.811 Y30.723 E152.49253
G1 X158.226 Y37.139 E152.915
G1 X158.397 Y37.395 E152.92934
G1 X158.479 Y37.721 E152.94499
G1 X158.442 Y38.065 E152.9611
G1 X158.292 Y38.367 E152.9768
G1 X158.258 Y38.413 E152.97946
G1 X146.866 Y49.808 E153.72975
G1 X146.635 Y49.966 E153.74278
G1 X146.28 Y50.061 E153.75989
G1 X145.914 Y50.018 E153.77705
G1 X145.611 Y49.854 E153.79309
G1 X145.572 Y49.824 E153.79538
G1 X139.141 Y43.395 E154.21881
G1 X53.966 Y128.569 E159.8277
G1 X60.406 Y135.011 E160.25185
G1 X60.578 Y135.307 E160.26779
G1 X60.637 Y135.638 E160.28344
G1 X60.583 Y135.955 E160.29842
G1 X60.428 Y136.238 E160.31344
G1 X60.398 Y136.277 E160.31573
G1 X48.961 Y147.706 E161.06862
G1 X48.716 Y147.845 E161.08173
G1 X48.373 Y147.91 E161.09799
G1 X48.052 Y147.86 E161.11311
G1 X47.764 Y147.7 E161.12846
G1 X47.726 Y147.67 E161.13071
G1 X41.295 Y141.241 E161.55414
G1 X17.93 Y164.603 E163.09266
G1 X70.961 Y213.503 E166.45158
G1 F2700 E165.45158
G0 F6000 X70.785 Y213.693
G0 X17.66 Y164.607
G0 X18.11 Y164.056
G1 F2700 E166.45158
G0 F6000 X18.434 Y164.381
G1 F1200 X23.739 Y169.686 E166.80093
G0 F6000 X23.427 Y170.023
G0 X17.66 Y164.607
G0 X18.393 Y163.773
G0 X18.717 Y164.098
G1 F1200 X31.003 Y176.384 E167.60998
G0 F6000 X30.692 Y176.721
G0 X37.956 Y183.419
G0 X38.267 Y183.082
G1 F1200 X19 Y163.816 E168.87871
G0 F6000 X19.283 Y163.533
G1 F1200 X45.531 Y189.781 E170.60719
G0 F6000 X45.22 Y190.118
G0 X52.484 Y196.816
G0 X52.795 Y196.479
G1 F1200 X19.566 Y163.25 E172.79537
G0 F6000 X19.849 Y162.967
G1 F1200 X60.058 Y203.177 E175.44324
G0 F6000 X59.747 Y203.514
G0 X67.011 Y210.212
G0 X67.322 Y209.875
G1 F1200 X20.132 Y162.684 E178.55081
G0 F6000 X20.414 Y162.401
G1 F1200 X71.096 Y213.083 E181.88831
G0 F6000 X71.379 Y212.8
G1 F1200 X20.697 Y162.119 E185.22577
G0 F6000 X20.98 Y161.836
G1 F1200 X71.662 Y212.518 E188.56327
G0 F6000 X71.945 Y212.235
G1 F1200 X21.263 Y161.553 E191.90077
G0 F6000 X21.546 Y161.27
G1 F1200 X72.228 Y211.952 E195.23826
G0 F6000 X72.51 Y211.669
G1 F1200 X21.829 Y160.987 E198.57573
G0 F6000 X22.111 Y160.704
G1 F1200 X72.793 Y211.386 E201.91322
G0 F6000 X73.076 Y211.103
G1 F1200 X22.394 Y160.422 E205.25069
G0 F6000 X22.677 Y160.139
G1 F1200 X73.359 Y210.821 E208.58818
G0 F6000 X73.642 Y210.538
G1 F1200 X22.96 Y159.856 E211.92568
G0 F6000 X23.243 Y159.573
G1 F1200 X73.925 Y210.255 E215.26317
G0 F6000 X74.208 Y209.972
G1 F1200 X23.526 Y159.29 E218.60067
G0 F6000 X23.808 Y159.007
G1 F1200 X74.49 Y209.689 E221.93817
G0 F6000 X74.773 Y209.406
G1 F1200 X24.091 Y158.724 E225.27566
G0 F6000 X24.374 Y158.442
G1 F1200 X75.056 Y209.124 E228.61316
G0 F6000 X75.339 Y208.841
G1 F1200 X24.657 Y158.159 E231.95066
G0 F6000 X24.94 Y157.876
G1 F1200 X75.622 Y208.558 E235.28815
G0 F6000 X75.905 Y208.275
G1 F1200 X25.223 Y157.593 E238.62565
G0 F6000 X25.506 Y157.31
G1 F1200 X76.187 Y207.992 E241.96311
G0 F6000 X76.47 Y207.709
G1 F1200 X25.788 Y157.027 E245.30061
G0 F6000 X26.071 Y156.745
G1 F1200 X76.753 Y207.426 E248.63807
G0 F6000 X77.036 Y207.144
G1 F1200 X26.354 Y156.462 E251.97557
G0 F6000 X26.637 Y156.179
G1 F1200 X77.319 Y206.861 E255.31306
G0 F6000 X77.602 Y206.578
G1 F1200 X26.92 Y155.896 E258.65056
G0 F6000 X27.203 Y155.613
G1 F1200 X77.884 Y206.295 E261.98802
G0 F6000 X78.167 Y206.012
G1 F1200 X27.485 Y155.33 E265.32552
G0 F6000 X27.768 Y155.048
G1 F1200 X78.45 Y205.729 E268.66298
G0 F6000 X78.733 Y205.447
G1 F1200 X28.051 Y154.765 E272.00048
G0 F6000 X28.334 Y154.482
G1 F1200 X79.016 Y205.164 E275.33797
G0 F6000 X79.299 Y204.881
G1 F1200 X28.617 Y154.199 E278.67547
G0 F6000 X28.9 Y153.916
G1 F1200 X79.582 Y204.598 E282.01297
G0 F6000 X79.864 Y204.315
G1 F1200 X29.183 Y153.633 E285.35043
G0 F6000 X29.465 Y153.35
G1 F1200 X80.147 Y204.032 E288.68793
G0 F6000 X80.43 Y203.749
G1 F1200 X29.748 Y153.068 E292.02539
G0 F6000 X30.032 Y152.785
G1 F1200 X80.713 Y203.467 E295.36285
G0 F6000 X80.996 Y203.184
G1 F1200 X30.315 Y152.503 E298.70028
G0 F6000 X30.597 Y152.22
G1 F1200 X81.279 Y202.901 E302.03775
G0 F6000 X81.561 Y202.618
G1 F1200 X30.88 Y151.937 E305.37518
G0 F6000 X31.163 Y151.654
G1 F1200 X81.844 Y202.335 E308.71261
G0 F6000 X82.127 Y202.052
G1 F1200 X31.446 Y151.371 E312.05004
G0 F6000 X31.729 Y151.088
G1 F1200 X82.41 Y201.77 E315.3875
G0 F6000 X82.693 Y201.487
G1 F1200 X32.012 Y150.806 E318.72493
G0 F6000 X32.294 Y150.523
G1 F1200 X82.976 Y201.204 E322.0624
G0 F6000 X83.258 Y200.921
G1 F1200 X32.577 Y150.24 E325.39983
G0 F6000 X32.86 Y149.957
G1 F1200 X83.541 Y200.638 E328.73726
G0 F6000 X83.824 Y200.355
G1 F1200 X33.143 Y149.674 E332.07469
G0 F6000 X33.426 Y149.391
G1 F1200 X84.107 Y200.073 E335.41215
G0 F6000 X84.39 Y199.79
G1 F1200 X33.709 Y149.109 E338.74958
G0 F6000 X33.992 Y148.826
G1 F1200 X84.673 Y199.507 E342.08701
G0 F6000 X84.956 Y199.224
